; HEADER_BLOCK_START
; generated by OrcaSlicer 2.3.1 on 2026-03-29 at 12:46:07
; total layer number: 59
; filament_density: 1.27
; filament_diameter: 1.75
; max_z_height: 11.80
; HEADER_BLOCK_END

; THUMBNAIL_BLOCK_START

;
; THUMBNAIL_BLOCK_END

; external perimeters extrusion width = 0.45mm
; perimeters extrusion width = 0.45mm
; infill extrusion width = 0.45mm
; solid infill extrusion width = 0.45mm
; top infill extrusion width = 0.38mm
; first layer extrusion width = 0.45mm

; external perimeters extrusion width = 0.45mm
; perimeters extrusion width = 0.45mm
; infill extrusion width = 0.45mm
; solid infill extrusion width = 0.45mm
; top infill extrusion width = 0.38mm
; first layer extrusion width = 0.45mm

; EXECUTABLE_BLOCK_START
M73 P0 R63
M201 X5000 Y5000 Z1500 E5000
M203 X300 Y300 Z20 E30
M204 P5000 R5000 T5000
M205 X9.00 Y9.00 Z3.00 E2.50 ; sets the jerk limits, mm/sec
;TYPE:Custom
;STARTGCODE
M117 Initializing
; Set coordinate modes
G90 ; use absolute coordinates
M83 ; extruder relative mode
; Reset speed and extrusion rates
M200 D0 ; disable volumetric E
M220 S100 ; reset speed
; Set initial warmup temps
M117 Nozzle preheat
M104 S100 ; preheat extruder to no ooze temp
M140 S80 ; set bed temp
M190 S80 ; wait for bed final temp
M300 S40 P10 ; Bip
; Home
M117 Homing
G28 ; home all with default mesh bed level
; For ABL users put G29 for a leveling request
; Final warmup routine
M117 Final warmup
M104 S230 ; set extruder final temp
M109 S230 ; wait for extruder final temp
M190 S80 ; wait for bed final temp
M300 S440 P200     ; 1st beep for printer ready and allow some time to clean nozzle
M300 S0 P250       ; wait between dual beep
M300 S440 P200     ; 2nd beep for printer ready
G4 S10             ; wait to clean the nozzle
M300 S440 P200     ; 3rd beep for ready to start printing
; Prime line routine
M117 Printing prime line
;M900 K0; Disable Linear Advance (Marlin) for prime line
G92 E0.0; reset extrusion distance
G1 F3000 Z1
G1 X-150 Y0 Z0.4
G92 E0
G3 X0 Y-130 I150 Z0.3 E30 F2000
G92 E0.0 ; reset extrusion distance
; Final print adjustments
M117 Preparing to print
;M82 ; extruder absolute mode
M221 S95
M300 S40 P10 ; chirp
M117 Print demiBrideS3; Display: Printing started...
G90
G21
M83 ; use relative distances for extrusion
; filament start gcode
M106 S0
;LAYER_CHANGE
;Z:0.2
;HEIGHT:0.2
;BEFORE_LAYER_CHANGE
G92 E0.0
;0.2
G1 E-6.5 F2400
;AFTER_LAYER_CHANGE
;0.2
;_SET_FAN_SPEED_CHANGING_LAYER
M204 S3000
G1 Z.5 F10800
G1 X-53.107 Y-30.489
G1 Z.5
G1 Z.2
G1 E6.5 F2400
;TYPE:Skirt
;WIDTH:0.45
G1 F3000
G1 X-51.285 Y-31.962 E.07532
G1 X-46.067 Y-35.559 E.20381
G1 X-40.426 Y-38.867 E.21027
G1 X-34.926 Y-41.589 E.19735
G1 X-29.739 Y-43.734 E.18047
G1 X-23.733 Y-45.758 E.20381
G1 X-17.402 Y-47.393 E.21027
G1 X-11.165 Y-48.524 E.20381
G1 X-4.864 Y-49.205 E.20381
G1 X1.995 Y-49.432 E.22069
G1 X8.328 Y-49.169 E.20381
G1 X14.106 Y-48.529 E.18694
G1 X20.343 Y-47.4 E.20381
G1 X26.29 Y-45.882 E.19735
G1 X33.173 Y-43.56 E.2336
G1 X38.824 Y-41.166 E.19735
G1 X44.47 Y-38.286 E.20381
G1 X49.895 Y-35.008 E.20381
G1 X55.23 Y-31.227 E.21027
G1 X97.217 Y3.585 E1.75385
G1 X98.564 Y4.899 E.0605
G1 X99.5 Y6.083 E.04856
G1 X100.673 Y8.135 E.076
G1 X101.218 Y9.544 E.04856
G1 X101.596 Y11.006 E.04856
G1 X105.74 Y45.836 E1.12792
G1 X105.864 Y47.54 E.05492
G1 X105.864 Y51.54 E.12863
G1 X105.728 Y53.372 E.05909
G1 X105.427 Y54.852 E.04856
G1 X104.956 Y56.287 E.04856
G1 X104.32 Y57.657 E.04856
G1 X103.529 Y58.943 E.04856
G1 X102.594 Y60.129 E.04856
G1 X101.527 Y61.197 E.04856
G1 X99.626 Y62.601 E.076
G1 X97.688 Y63.564 E.06958
G1 X96.254 Y64.037 E.04856
G1 X94.819 Y64.334 E.04712
G1 X-65.575 Y83.404 E5.19399
G1 X-66.951 Y83.478 E.04434
G1 X-84.892 Y83.47 E.5769
G1 X-86.074 Y83.41 E.03806
G1 X-87.567 Y83.183 E.04856
G1 X-89.639 Y82.559 E.06958
G1 X-91.009 Y81.923 E.04856
G1 X-92.295 Y81.132 E.04856
G1 X-94.1 Y79.606 E.076
G1 X-95.095 Y78.47 E.04856
G1 X-95.951 Y77.226 E.04856
G1 X-96.912 Y75.287 E.06958
G1 X-97.385 Y73.853 E.04856
G1 X-97.682 Y72.417 E.04717
G1 X-101.702 Y38.377 E1.1022
G1 X-101.844 Y36.492 E.06078
G1 X-101.834 Y32.165 E.13916
G1 X-101.559 Y29.817 E.076
G1 X-100.936 Y27.745 E.06958
G1 X-100.3 Y26.375 E.04856
G1 X-99.509 Y25.088 E.04856
G1 X-69.145 Y-14.212 E1.59702
G1 X-65.557 Y-18.668 E.18397
G1 X-61.254 Y-23.322 E.20381
G1 X-56.779 Y-27.521 E.19735
G1 X-53.138 Y-30.464 E.15054
G1 X-52.89 Y-30.155 F10800
G1 F3000
G1 X-51.041 Y-31.636 E.07617
G1 X-45.847 Y-35.217 E.20288
G1 X-40.244 Y-38.503 E.20887
G1 X-34.757 Y-41.219 E.19688
G1 X-29.584 Y-43.358 E.18
G1 X-23.605 Y-45.372 E.20287
G1 X-17.316 Y-46.995 E.20887
G1 X-11.108 Y-48.121 E.20288
G1 X-4.836 Y-48.799 E.20288
G1 X1.994 Y-49.025 E.21975
G1 X8.298 Y-48.763 E.20287
G1 X14.047 Y-48.126 E.186
G1 X20.255 Y-47.003 E.20288
G1 X26.187 Y-45.488 E.19688
G1 X33.016 Y-43.184 E.23173
G1 X38.653 Y-40.796 E.19688
G1 X44.273 Y-37.929 E.20288
G1 X49.673 Y-34.667 E.20288
G1 X54.973 Y-30.911 E.20887
G1 X96.957 Y3.898 E1.75373
G1 X97.835 Y4.716 E.0386
G1 X99.159 Y6.305 E.06653
G1 X99.928 Y7.55 E.04703
G1 X100.547 Y8.875 E.04703
G1 X101.199 Y11.097 E.07447
G1 X105.334 Y45.871 E1.12605
G1 X105.457 Y47.54 E.05381
G1 X105.457 Y51.54 E.12863
G1 X105.327 Y53.301 E.0568
G1 X105.037 Y54.735 E.04703
G1 X104.582 Y56.125 E.04703
G1 X103.968 Y57.452 E.04703
G1 X103.204 Y58.699 E.04703
G1 X102.299 Y59.849 E.04703
G1 X101.266 Y60.885 E.04703
G1 X99.403 Y62.26 E.07447
G1 X97.55 Y63.18 E.06653
G1 X96.162 Y63.64 E.04703
G1 X94.771 Y63.93 E.0457
G1 X-65.623 Y82.999 E5.19399
G1 X-66.951 Y83.07 E.04278
G1 X-84.892 Y83.063 E.5769
G1 X-86.05 Y83.003 E.0373
G1 X-87.496 Y82.783 E.04703
G1 X-88.906 Y82.395 E.04703
G1 X-90.262 Y81.845 E.04703
G1 X-92.051 Y80.806 E.06653
G1 X-93.82 Y79.311 E.07447
G1 X-94.782 Y78.21 E.04703
G1 X-95.61 Y77.004 E.04703
G1 X-96.529 Y75.15 E.06653
G1 X-96.988 Y73.762 E.04703
G1 X-97.277 Y72.369 E.04574
G1 X-101.297 Y38.329 E1.1022
G1 X-101.437 Y36.492 E.05924
G1 X-101.428 Y32.188 E.1384
G1 X-101.158 Y29.888 E.07447
G1 X-100.562 Y27.907 E.06653
G1 X-99.948 Y26.579 E.04703
G1 X-99.184 Y25.332 E.04703
G1 X-68.823 Y-13.963 E1.59682
G1 X-65.249 Y-18.401 E.18324
G1 X-60.461 Y-23.535 E.22574
G1 X-55.966 Y-27.692 E.19688
G1 X-52.921 Y-30.13 E.12542
; printing object demiBrideS3.stl id:0 copy 0
G1 E-5.7 F2400
;WIPE_START
G1 F3000
G1 X-52.141 Y-30.755 E-.8
;WIPE_END
G1 Z.5 F10800
G1 X-49.538 Y-25.931 Z.5
G1 Z.2
G1 E6.5 F2400
;TYPE:Brim
G1 F2700
G1 X-48.219 Y-26.994 E.05447
G1 X-47.805 Y-27.304 E.01665
G1 X-43.365 Y-30.385 E.17377
G1 X-42.929 Y-30.665 E.01665
G1 X-38.28 Y-33.419 E.17377
G1 X-37.825 Y-33.667 E.01665
G1 X-32.99 Y-36.082 E.17377
G1 X-32.519 Y-36.296 E.01665
G1 X-27.524 Y-38.358 E.17377
G1 X-27.039 Y-38.539 E.01665
G1 X-21.909 Y-40.238 E.17377
G1 X-21.412 Y-40.383 E.01665
G1 X-16.173 Y-41.71 E.17377
G1 X-15.667 Y-41.819 E.01665
G1 X-10.347 Y-42.768 E.17377
G1 X-9.834 Y-42.84 E.01665
G1 X-4.46 Y-43.405 E.17377
G1 X-3.943 Y-43.441 E.01665
G1 X1.458 Y-43.62 E.17377
G1 X1.976 Y-43.618 E.01665
G1 X7.376 Y-43.41 E.17377
G1 X7.892 Y-43.371 E.01666
G1 X13.263 Y-42.776 E.17377
G1 X13.776 Y-42.701 E.01665
G1 X19.09 Y-41.723 E.17377
G1 X19.596 Y-41.611 E.01665
G1 X24.827 Y-40.255 E.17377
G1 X25.323 Y-40.107 E.01665
G1 X30.444 Y-38.379 E.17377
G1 X30.928 Y-38.196 E.01665
G1 X35.912 Y-36.107 E.17377
G1 X36.382 Y-35.889 E.01665
G1 X41.203 Y-33.448 E.17377
G1 X41.656 Y-33.198 E.01665
G1 X46.29 Y-30.417 E.17377
G1 X46.724 Y-30.135 E.01665
G1 X51.147 Y-27.03 E.17377
G1 X51.56 Y-26.718 E.01665
G1 X55.749 Y-23.304 E.17377
G1 X56.138 Y-22.962 E.01665
G1 X60.072 Y-19.257 E.17377
G1 X60.436 Y-18.889 E.01665
G1 X64.094 Y-14.911 E.17377
G1 X64.431 Y-14.518 E.01665
G1 X67.795 Y-10.289 E.17377
G1 X68.102 Y-9.872 E.01665
G1 X71.155 Y-5.413 E.17377
G1 X71.432 Y-4.975 E.01665
G1 X74.157 Y-.309 E.17377
G1 X74.402 Y.148 E.01665
G1 X75.972 Y3.341 E.11443
G1 X76.036 Y3.417 E.0032
G1 X80.131 Y6.338 E.16175
G1 X80.25 Y6.376 E.00399
G1 X88.9 Y6.376 E.27816
G1 X89.736 Y6.425 E.02694
G1 X90.555 Y6.57 E.02675
G1 X91.352 Y6.809 E.02675
G1 X92.115 Y7.14 E.02675
G1 X92.835 Y7.558 E.02675
G1 X93.5 Y8.056 E.02675
G1 X94.104 Y8.629 E.02675
G1 X94.636 Y9.268 E.02675
G1 X95.09 Y9.965 E.02675
G1 X95.46 Y10.71 E.02675
G1 X95.741 Y11.493 E.02675
G1 X95.927 Y12.301 E.02666
G1 X96.03 Y13.508 E.03897
G1 X96.03 Y17.494 E.12816
G1 X95.981 Y18.33 E.02694
G1 X95.836 Y19.149 E.02675
G1 X95.596 Y19.946 E.02675
G1 X95.265 Y20.709 E.02675
G1 X94.848 Y21.429 E.02675
G1 X94.349 Y22.095 E.02675
G1 X93.777 Y22.698 E.02675
G1 X93.137 Y23.23 E.02675
G1 X92.441 Y23.684 E.02675
G1 X91.696 Y24.054 E.02675
G1 X90.912 Y24.335 E.02675
M73 P1 R63
G1 X90.105 Y24.522 E.02666
G1 X88.897 Y24.624 E.03897
G1 X70.732 Y24.624 E.58411
G1 X69.896 Y24.575 E.02694
G1 X69.077 Y24.43 E.02675
G1 X68.28 Y24.19 E.02675
G1 X67.517 Y23.859 E.02675
G1 X66.798 Y23.442 E.02675
G1 X66.132 Y22.944 E.02675
G1 X65.528 Y22.371 E.02675
G1 X64.996 Y21.732 E.02675
G1 X64.542 Y21.035 E.02675
G1 X64.171 Y20.287 E.02683
G1 X64.005 Y19.859 E.01477
G1 X62.315 Y15.054 E.16379
G1 X60.383 Y10.632 E.15519
G1 X58.129 Y6.364 E.15519
G1 X55.576 Y2.287 E.15471
G1 X52.72 Y-1.604 E.15519
G1 X49.574 Y-5.284 E.15567
G1 X46.176 Y-8.711 E.15519
G1 X42.535 Y-11.878 E.15519
G1 X38.669 Y-14.767 E.15519
G1 X34.601 Y-17.364 E.15519
G1 X30.353 Y-19.653 E.15519
G1 X25.961 Y-21.617 E.15471
G1 X21.422 Y-23.258 E.15519
G1 X16.76 Y-24.562 E.15567
G1 X12.029 Y-25.516 E.15519
G1 X7.256 Y-26.116 E.15471
G1 X2.436 Y-26.364 E.15519
G1 X-2.389 Y-26.256 E.15519
G1 X-7.193 Y-25.792 E.15519
G1 X-11.964 Y-24.972 E.15567
G1 X-16.647 Y-23.805 E.15519
G1 X-21.231 Y-22.296 E.15519
G1 X-25.677 Y-20.46 E.15471
G1 X-29.99 Y-18.293 E.15519
G1 X-34.144 Y-15.807 E.15567
G1 X-38.09 Y-13.029 E.15519
G1 X-41.821 Y-9.967 E.15519
G1 X-45.315 Y-6.638 E.15519
G1 X-48.545 Y-3.073 E.15471
G1 X-51.512 Y.733 E.15519
G1 X-54.199 Y4.76 E.15567
G1 X-56.573 Y8.962 E.15519
G1 X-58.631 Y13.327 E.15519
G1 X-60.361 Y17.833 E.15519
G1 X-61.751 Y22.439 E.15471
G1 X-62.8 Y27.149 E.15519
G1 X-63.499 Y31.924 E.15519
G1 X-63.863 Y37.002 E.1637
G1 X-63.971 Y37.833 E.02694
G1 X-64.175 Y38.64 E.02675
G1 X-64.47 Y39.417 E.02675
G1 X-64.855 Y40.155 E.02675
G1 X-65.322 Y40.843 E.02675
G1 X-65.867 Y41.471 E.02675
G1 X-66.482 Y42.032 E.02675
G1 X-67.157 Y42.518 E.02675
G1 X-67.885 Y42.921 E.02675
G1 X-68.654 Y43.237 E.02675
G1 X-69.455 Y43.461 E.02675
G1 X-70.278 Y43.59 E.02678
G1 X-70.974 Y43.624 E.02241
G1 X-88.903 Y43.616 E.57654
G1 X-89.74 Y43.567 E.02694
G1 X-90.559 Y43.421 E.02675
G1 X-91.355 Y43.181 E.02675
G1 X-92.118 Y42.85 E.02675
G1 X-92.838 Y42.432 E.02675
G1 X-93.503 Y41.933 E.02675
G1 X-94.106 Y41.36 E.02675
G1 X-94.638 Y40.721 E.02675
G1 X-95.092 Y40.024 E.02675
G1 X-95.462 Y39.279 E.02675
G1 X-95.742 Y38.495 E.02675
G1 X-95.928 Y37.687 E.02666
G1 X-96.03 Y36.484 E.03885
G1 X-96.03 Y32.498 E.12816
G1 X-95.981 Y31.662 E.02694
G1 X-95.836 Y30.843 E.02675
G1 X-95.596 Y30.046 E.02675
G1 X-95.265 Y29.283 E.02675
G1 X-94.848 Y28.563 E.02675
G1 X-94.349 Y27.897 E.02675
G1 X-93.777 Y27.294 E.02675
G1 X-93.137 Y26.762 E.02675
G1 X-92.441 Y26.308 E.02675
G1 X-91.696 Y25.938 E.02675
G1 X-90.912 Y25.657 E.02675
G1 X-90.105 Y25.47 E.02666
G1 X-88.897 Y25.368 E.03897
G1 X-80.358 Y25.368 E.27458
G1 X-80.216 Y25.31 E.00496
G1 X-79.938 Y25.037 E.01251
G1 X-79.881 Y24.928 E.00398
G1 X-79.345 Y21.908 E.09861
G1 X-79.236 Y21.402 E.01665
G1 X-77.913 Y16.162 E.17377
G1 X-77.768 Y15.665 E.01665
G1 X-76.073 Y10.534 E.17377
G1 X-75.893 Y10.048 E.01665
G1 X-73.835 Y5.052 E.17377
G1 X-73.621 Y4.58 E.01665
G1 X-71.21 Y-.256 E.17377
G1 X-70.963 Y-.711 E.01665
G1 X-68.212 Y-5.362 E.17377
G1 X-67.932 Y-5.798 E.01665
G1 X-64.881 Y-10.203 E.17231
G1 X-64.545 Y-10.656 E.01813
G1 X-61.158 Y-14.866 E.17376
G1 X-60.819 Y-15.258 E.01665
G1 X-57.139 Y-19.215 E.17377
G1 X-56.773 Y-19.581 E.01665
G1 X-52.818 Y-23.264 E.17377
G1 X-52.427 Y-23.604 E.01665
G1 X-49.569 Y-25.906 E.11802
G1 X-49.314 Y-25.589 F10800
G1 F2700
G1 X-47.971 Y-26.671 E.05545
G1 X-47.568 Y-26.973 E.01618
G1 X-43.14 Y-30.045 E.1733
G1 X-42.713 Y-30.319 E.01632
G1 X-38.08 Y-33.064 E.17316
G1 X-37.638 Y-33.305 E.01618
G1 X-32.817 Y-35.713 E.1733
G1 X-32.355 Y-35.924 E.01632
G1 X-27.373 Y-37.98 E.1733
G1 X-26.902 Y-38.155 E.01618
G1 X-21.79 Y-39.848 E.17316
G1 X-21.307 Y-39.989 E.01618
G1 X-16.082 Y-41.313 E.1733
G1 X-15.586 Y-41.42 E.01632
G1 X-10.285 Y-42.365 E.17316
G1 X-9.786 Y-42.436 E.01618
G1 X-4.427 Y-43 E.1733
G1 X-3.92 Y-43.034 E.01633
G1 X1.462 Y-43.213 E.17316
G1 X1.965 Y-43.211 E.01619
G1 X7.35 Y-43.003 E.1733
G1 X7.852 Y-42.966 E.01619
G1 X13.209 Y-42.373 E.1733
G1 X13.707 Y-42.299 E.01618
G1 X19.007 Y-41.324 E.1733
G1 X19.499 Y-41.215 E.01618
G1 X24.715 Y-39.863 E.1733
G1 X25.198 Y-39.719 E.01618
G1 X30.304 Y-37.997 E.1733
G1 X30.775 Y-37.819 E.01618
G1 X35.745 Y-35.735 E.1733
G1 X36.202 Y-35.524 E.01618
G1 X41.01 Y-33.089 E.1733
G1 X41.451 Y-32.846 E.01618
G1 X46.072 Y-30.073 E.1733
G1 X46.498 Y-29.797 E.01632
G1 X50.905 Y-26.702 E.17316
G1 X51.307 Y-26.399 E.01618
G1 X55.484 Y-22.994 E.1733
G1 X55.863 Y-22.663 E.01618
G1 X59.789 Y-18.964 E.17344
G1 X60.143 Y-18.606 E.01618
G1 X63.791 Y-14.64 E.1733
G1 X64.118 Y-14.257 E.01618
G1 X67.473 Y-10.039 E.1733
G1 X67.772 Y-9.634 E.01618
G1 X70.816 Y-5.187 E.1733
G1 X71.085 Y-4.762 E.01618
G1 X73.803 Y-.108 E.1733
G1 X74.041 Y.336 E.01618
G1 X75.602 Y3.511 E.11378
G1 X75.724 Y3.678 E.00665
G1 X75.806 Y3.753 E.00357
G1 X79.884 Y6.662 E.16107
G1 X80.122 Y6.762 E.0083
G1 X80.259 Y6.783 E.00447
G1 X88.884 Y6.783 E.27735
G1 X89.696 Y6.831 E.02613
G1 X90.468 Y6.969 E.02522
G1 X91.205 Y7.19 E.02476
G1 X91.938 Y7.508 E.02567
G1 X92.615 Y7.902 E.02522
G1 X93.243 Y8.373 E.02522
G1 X93.801 Y8.903 E.02476
G1 X94.303 Y9.505 E.02522
G1 X94.732 Y10.161 E.02522
G1 X95.087 Y10.876 E.02567
G1 X95.347 Y11.601 E.02476
G1 X95.522 Y12.356 E.02491
G1 X95.622 Y13.52 E.03759
G1 X95.623 Y17.478 E.12727
G1 X95.574 Y18.29 E.02613
G1 X95.437 Y19.062 E.02522
G1 X95.21 Y19.812 E.02522
G1 X94.898 Y20.532 E.02522
G1 X94.503 Y21.209 E.02522
G1 X94.033 Y21.837 E.02522
G1 X93.503 Y22.395 E.02476
G1 X92.901 Y22.898 E.02522
G1 X92.244 Y23.327 E.02522
G1 X91.529 Y23.682 E.02567
G1 X90.791 Y23.945 E.02522
G1 X90.033 Y24.119 E.02501
G1 X88.875 Y24.217 E.03736
G1 X70.748 Y24.217 E.5829
G1 X69.951 Y24.17 E.02568
G1 X69.178 Y24.034 E.02522
G1 X68.427 Y23.809 E.02522
G1 X67.707 Y23.498 E.02522
G1 X67.029 Y23.105 E.02522
G1 X66.39 Y22.627 E.02567
G1 X65.821 Y22.086 E.02522
G1 X65.32 Y21.483 E.02522
G1 X64.9 Y20.838 E.02476
G1 X64.546 Y20.128 E.02553
G1 X64.387 Y19.72 E.01408
G1 X62.686 Y14.887 E.16475
G1 X60.741 Y10.438 E.15615
G1 X58.472 Y6.144 E.15615
G1 X55.901 Y2.042 E.15567
G1 X53.05 Y-1.841 E.1549
G1 X49.887 Y-5.545 E.15664
G1 X46.468 Y-8.994 E.15616
M73 P1 R62
G1 X42.775 Y-12.206 E.15741
G1 X38.884 Y-15.113 E.15615
G1 X34.79 Y-17.724 E.15615
G1 X30.55 Y-20.009 E.1549
G1 X26.131 Y-21.987 E.15567
G1 X21.565 Y-23.639 E.15615
G1 X16.874 Y-24.953 E.15664
G1 X12.114 Y-25.914 E.15616
G1 X7.272 Y-26.523 E.15692
G1 X2.422 Y-26.771 E.15615
G1 X-2.394 Y-26.663 E.1549
G1 X-7.227 Y-26.198 E.15615
G1 X-12.028 Y-25.374 E.15664
G1 X-16.778 Y-24.191 E.15741
G1 X-21.39 Y-22.671 E.15615
G1 X-25.864 Y-20.821 E.15567
G1 X-30.169 Y-18.659 E.1549
G1 X-34.349 Y-16.158 E.15664
G1 X-38.352 Y-13.341 E.15741
G1 X-42.105 Y-10.259 E.15615
G1 X-45.593 Y-6.936 E.1549
G1 X-48.844 Y-3.349 E.15567
G1 X-51.831 Y.479 E.15615
G1 X-54.535 Y4.531 E.15664
G1 X-56.926 Y8.758 E.15615
G1 X-59.013 Y13.186 E.15741
G1 X-60.752 Y17.719 E.15615
G1 X-62.149 Y22.355 E.15567
G1 X-63.196 Y27.056 E.1549
G1 X-63.901 Y31.861 E.15615
G1 X-64.268 Y36.958 E.16432
G1 X-64.371 Y37.75 E.02568
G1 X-64.562 Y38.51 E.02522
G1 X-64.846 Y39.256 E.02567
G1 X-65.201 Y39.939 E.02476
G1 X-65.642 Y40.588 E.02522
G1 X-66.165 Y41.192 E.02567
G1 X-66.744 Y41.72 E.02522
G1 X-67.381 Y42.177 E.02522
G1 X-68.068 Y42.556 E.02522
G1 X-68.78 Y42.848 E.02476
G1 X-69.549 Y43.063 E.02567
G1 X-70.326 Y43.185 E.02529
G1 X-70.987 Y43.217 E.02127
G1 X-88.888 Y43.209 E.57563
G1 X-89.699 Y43.16 E.02613
G1 X-90.471 Y43.023 E.02522
G1 X-91.222 Y42.796 E.02522
