; HEADER_BLOCK_START
; generated by OrcaSlicer 2.3.1 on 2026-03-05 at 18:25:19
; total layer number: 65
; filament_density: 1.27
; filament_diameter: 1.75
; max_z_height: 13.00
; HEADER_BLOCK_END

; THUMBNAIL_BLOCK_START

;
; THUMBNAIL_BLOCK_END

; external perimeters extrusion width = 0.45mm
; perimeters extrusion width = 0.45mm
; infill extrusion width = 0.45mm
; solid infill extrusion width = 0.45mm
; top infill extrusion width = 0.38mm
; first layer extrusion width = 0.45mm

; external perimeters extrusion width = 0.45mm
; perimeters extrusion width = 0.45mm
; infill extrusion width = 0.45mm
; solid infill extrusion width = 0.45mm
; top infill extrusion width = 0.38mm
; first layer extrusion width = 0.45mm

; EXECUTABLE_BLOCK_START
M73 P0 R105
M201 X5000 Y5000 Z1500 E5000
M203 X300 Y300 Z20 E30
M204 P5000 R5000 T5000
M205 X9.00 Y9.00 Z3.00 E2.50 ; sets the jerk limits, mm/sec
;TYPE:Custom
;STARTGCODE
M117 Initializing
; Set coordinate modes
G90 ; use absolute coordinates
M83 ; extruder relative mode
; Reset speed and extrusion rates
M200 D0 ; disable volumetric E
M220 S100 ; reset speed
; Set initial warmup temps
M117 Nozzle preheat
M104 S100 ; preheat extruder to no ooze temp
M140 S80 ; set bed temp
M190 S80 ; wait for bed final temp
M300 S40 P10 ; Bip
; Home
M117 Homing
G28 ; home all with default mesh bed level
; For ABL users put G29 for a leveling request
; Final warmup routine
M117 Final warmup
M104 S230 ; set extruder final temp
M109 S230 ; wait for extruder final temp
M190 S80 ; wait for bed final temp
M300 S440 P200     ; 1st beep for printer ready and allow some time to clean nozzle
M300 S0 P250       ; wait between dual beep
M300 S440 P200     ; 2nd beep for printer ready
G4 S10             ; wait to clean the nozzle
M300 S440 P200     ; 3rd beep for ready to start printing
; Prime line routine
M117 Printing prime line
;M900 K0; Disable Linear Advance (Marlin) for prime line
G92 E0.0; reset extrusion distance
G1 F3000 Z1
G1 X-150 Y0 Z0.4
G92 E0
G3 X0 Y-130 I150 Z0.3 E30 F2000
G92 E0.0 ; reset extrusion distance
; Final print adjustments
M117 Preparing to print
;M82 ; extruder absolute mode
M221 S95
M300 S40 P10 ; chirp
M117 Print SolarFoc1_TopCov3; Display: Printing started...
G90
G21
M83 ; use relative distances for extrusion
; filament start gcode
M106 S0
;LAYER_CHANGE
;Z:0.2
;HEIGHT:0.2
;BEFORE_LAYER_CHANGE
G92 E0.0
;0.2
G1 E-6.5 F2400
;AFTER_LAYER_CHANGE
;0.2
;_SET_FAN_SPEED_CHANGING_LAYER
M204 S3000
G1 Z.5 F10800
G1 X-63.141 Y-27.374
G1 Z.5
G1 Z.2
G1 E6.5 F2400
;TYPE:Skirt
;WIDTH:0.45
G1 F3000
G1 X-5.91 Y-46.141 E1.93676
G1 X-3.365 Y-46.744 E.08408
G1 X-2.245 Y-46.924 E.0365
G1 X-1.074 Y-46.997 E.0377
G1 X1.057 Y-46.982 E.06853
G1 X2.524 Y-46.823 E.04745
G1 X4.567 Y-46.387 E.06717
G1 X5.836 Y-46.025 E.04245
G1 X70.778 Y-24.413 E2.2009
G1 X72.724 Y-23.593 E.06791
G1 X74.392 Y-22.502 E.06408
G1 X75.806 Y-21.182 E.06222
G1 X77.105 Y-19.447 E.06968
G1 X77.866 Y-17.954 E.05389
G1 X78.318 Y-16.705 E.04272
G1 X78.614 Y-15.426 E.04222
G1 X78.791 Y-13.468 E.0632
G1 X78.791 Y67.532 E2.60467
G1 X78.6 Y69.556 E.06539
G1 X78.231 Y71.046 E.04935
G1 X77.691 Y72.413 E.04729
G1 X76.949 Y73.756 E.04934
G1 X76.073 Y74.938 E.04728
G1 X75.009 Y76.043 E.04934
G1 X73.858 Y76.957 E.04728
G1 X72.543 Y77.749 E.04934
G1 X71.195 Y78.335 E.04728
G1 X69.72 Y78.759 E.04934
G1 X68.3 Y78.974 E.04619
G1 X67.295 Y79.027 E.03235
G1 X-68.705 Y79.027 E4.37327
G1 X-70.729 Y78.837 E.06539
G1 X-72.219 Y78.467 E.04934
G1 X-73.586 Y77.928 E.04728
G1 X-74.929 Y77.185 E.04934
G1 X-76.633 Y75.846 E.06968
G1 X-77.754 Y74.6 E.0539
G1 X-78.515 Y73.511 E.04272
G1 X-79.275 Y72.017 E.05389
G1 X-79.728 Y70.768 E.04272
G1 X-80.076 Y69.129 E.0539
G1 X-80.188 Y67.899 E.03971
G1 X-80.2 Y-13.468 E2.61646
G1 X-80.01 Y-15.493 E.06539
M73 P0 R104
G1 X-79.64 Y-16.982 E.04935
G1 X-79.101 Y-18.35 E.04729
G1 X-78.358 Y-19.693 E.04934
G1 X-77.019 Y-21.396 E.06968
G1 X-75.773 Y-22.517 E.05389
G1 X-74.684 Y-23.278 E.04272
G1 X-73.953 Y-23.686 E.02692
G1 X-72.604 Y-24.271 E.04728
G1 X-63.179 Y-27.362 E.31896
G1 X-63.052 Y-26.975 F10800
G1 F3000
G1 X-5.783 Y-45.754 E1.93805
G1 X-3.275 Y-46.347 E.08285
G1 X-2.186 Y-46.522 E.03548
G1 X1.028 Y-46.576 E.10334
G1 X2.439 Y-46.425 E.04564
G1 X4.482 Y-45.989 E.06717
G1 X5.708 Y-45.639 E.041
G1 X70.64 Y-24.03 E2.20056
G1 X72.545 Y-23.227 E.06649
G1 X74.144 Y-22.179 E.06148
G1 X75.494 Y-20.921 E.05933
G1 X76.765 Y-19.223 E.06821
G1 X77.496 Y-17.783 E.05194
G1 X77.932 Y-16.576 E.04125
G1 X78.214 Y-15.349 E.0405
G1 X78.384 Y-13.468 E.06071
G1 X78.384 Y67.532 E2.60467
G1 X78.202 Y69.474 E.06274
G1 X77.849 Y70.905 E.04739
G1 X77.327 Y72.231 E.04582
G1 X76.616 Y73.522 E.04739
G1 X75.769 Y74.667 E.04581
G1 X74.748 Y75.73 E.04739
G1 X73.633 Y76.617 E.04581
G1 X72.372 Y77.38 E.04739
G1 X71.066 Y77.948 E.04581
G1 X69.65 Y78.358 E.04739
G1 X68.273 Y78.567 E.0448
G1 X67.295 Y78.62 E.03149
G1 X-68.705 Y78.62 E4.37327
G1 X-70.647 Y78.438 E.06274
G1 X-72.078 Y78.085 E.04739
G1 X-73.404 Y77.564 E.04581
G1 X-74.695 Y76.852 E.04739
G1 X-76.363 Y75.542 E.06821
G1 X-77.441 Y74.339 E.05194
G1 X-78.175 Y73.287 E.04125
G1 X-78.906 Y71.846 E.05194
G1 X-79.342 Y70.64 E.04125
G1 X-79.675 Y69.059 E.05195
G1 X-79.782 Y67.872 E.03832
G1 X-79.793 Y-13.468 E2.61561
G1 X-79.611 Y-15.411 E.06274
G1 X-79.258 Y-16.842 E.04739
G1 X-78.737 Y-18.168 E.04582
G1 X-78.025 Y-19.458 E.04739
G1 X-76.715 Y-21.126 E.06821
G1 X-75.513 Y-22.205 E.05194
G1 X-73.782 Y-23.316 E.06614
G1 X-72.475 Y-23.885 E.04581
G1 X-63.09 Y-26.962 E.31762
; printing object SolarFoc1_TopCov3.stl id:15 copy 0
G1 E-5.7 F2400
;WIPE_START
G1 F3000
G1 X-62.14 Y-27.274 E-.8
;WIPE_END
G1 Z.5 F10800
G1 X-63.09 Y-19.15 Z.5
G1 Z.2
G1 E6.5 F2400
;TYPE:Brim
G1 F2700
G1 X67.289 Y-19.15 E4.1925
G1 X67.913 Y-19.109 E.02012
G1 X68.149 Y-19.078 E.00767
G1 X68.812 Y-18.942 E.02175
G1 X69.547 Y-18.675 E.02515
G1 X70.152 Y-18.379 E.02166
G1 X70.65 Y-18.044 E.01929
G1 X70.846 Y-17.894 E.00795
G1 X71.352 Y-17.445 E.02174
G1 X71.873 Y-16.82 E.02616
G1 X72.243 Y-16.26 E.0216
G1 X72.585 Y-15.521 E.02616
G1 X72.797 Y-14.882 E.02166
G1 X72.902 Y-14.337 E.01786
G1 X72.977 Y-13.46 E.02831
G1 X72.977 Y67.523 E2.60411
G1 X72.903 Y68.399 E.02826
G1 X72.768 Y69.057 E.02158
G1 X72.487 Y69.82 E.02616
G1 X72.186 Y70.421 E.0216
G1 X71.718 Y71.086 E.02616
G1 X71.272 Y71.588 E.0216
G1 X70.647 Y72.11 E.02616
G1 X70.087 Y72.479 E.0216
G1 X69.348 Y72.821 E.02616
G1 X68.711 Y73.033 E.0216
G1 X67.909 Y73.173 E.02618
G1 X67.289 Y73.213 E.01998
G1 X-68.696 Y73.213 E4.37277
G1 X-69.572 Y73.139 E.02827
G1 X-70.23 Y73.004 E.02158
G1 X-70.993 Y72.724 E.02616
G1 X-71.594 Y72.423 E.0216
G1 X-72.259 Y71.955 E.02616
G1 X-72.761 Y71.509 E.0216
G1 X-73.283 Y70.884 E.02616
G1 X-73.652 Y70.323 E.0216
G1 X-73.994 Y69.585 E.02616
G1 X-74.206 Y68.947 E.0216
G1 X-74.346 Y68.145 E.02618
G1 X-74.386 Y67.525 E.01998
G1 X-74.386 Y-13.46 E2.60418
G1 X-74.312 Y-14.335 E.02826
G1 X-74.177 Y-14.993 E.02158
G1 X-73.897 Y-15.757 E.02616
G1 X-73.596 Y-16.357 E.0216
G1 X-73.128 Y-17.023 E.02616
G1 X-72.682 Y-17.525 E.0216
G1 X-72.057 Y-18.046 E.02616
G1 X-71.496 Y-18.416 E.0216
G1 X-70.758 Y-18.758 E.02616
G1 X-70.12 Y-18.97 E.0216
G1 X-69.318 Y-19.109 E.02618
G1 X-68.698 Y-19.15 E.01998
G1 X-63.13 Y-19.15 E.17905
G1 X-63.13 Y-18.743 F10800
G1 F2700
G1 X67.279 Y-18.742 E4.19348
G1 X67.883 Y-18.702 E.01947
G1 X68.69 Y-18.551 E.02639
G1 X69.381 Y-18.302 E.02363
G1 X69.941 Y-18.029 E.02001
G1 X70.409 Y-17.716 E.01813
G1 X71.05 Y-17.168 E.0271
G1 X71.542 Y-16.582 E.02458
G1 X71.881 Y-16.068 E.01981
G1 X72.203 Y-15.377 E.02451
G1 X72.4 Y-14.787 E.02003
G1 X72.497 Y-14.287 E.01636
G1 X72.57 Y-13.437 E.02743
G1 X72.57 Y67.501 E2.60267
G1 X72.5 Y68.334 E.02687
G1 X72.377 Y68.936 E.01977
G1 X72.115 Y69.652 E.02452
G1 X71.84 Y70.203 E.01981
G1 X71.402 Y70.827 E.02451
G1 X70.994 Y71.289 E.01981
G1 X70.409 Y71.778 E.02451
G1 X69.896 Y72.118 E.01981
G1 X69.204 Y72.439 E.02451
G1 X68.62 Y72.635 E.01981
G1 X67.867 Y72.767 E.02459
G1 X67.271 Y72.806 E.01919
G1 X-68.674 Y72.806 E4.3715
G1 X-69.507 Y72.736 E.02687
G1 X-70.109 Y72.613 E.01977
G1 X-70.825 Y72.352 E.02452
G1 X-71.376 Y72.077 E.01981
G1 X-72 Y71.639 E.02451
G1 X-72.462 Y71.23 E.01981
G1 X-72.951 Y70.646 E.02451
G1 X-73.291 Y70.132 E.01981
G1 X-73.612 Y69.441 E.02451
G1 X-73.808 Y68.857 E.01981
G1 X-73.94 Y68.103 E.02459
G1 X-73.979 Y67.508 E.01919
G1 X-73.979 Y-13.437 E2.6029
G1 X-73.909 Y-14.27 E.02687
G1 X-73.786 Y-14.872 E.01977
G1 X-73.525 Y-15.589 E.02452
G1 X-73.25 Y-16.14 E.01981
G1 X-72.812 Y-16.764 E.02451
G1 X-72.403 Y-17.225 E.01981
G1 X-71.819 Y-17.714 E.02451
G1 X-71.305 Y-18.054 E.01981
G1 X-70.614 Y-18.376 E.02452
G1 X-70.029 Y-18.571 E.01981
G1 X-69.276 Y-18.703 E.02459
G1 X-68.681 Y-18.743 E.01919
G1 X-63.17 Y-18.743 E.17721
G1 X-63.17 Y-18.335 F10800
G1 F2700
G1 X67.262 Y-18.335 E4.1942
G1 X67.839 Y-18.296 E.01862
G1 X68.573 Y-18.159 E.02402
G1 X69.216 Y-17.929 E.02195
G1 X69.73 Y-17.679 E.01837
G1 X70.157 Y-17.394 E.01651
G1 X70.752 Y-16.887 E.02514
G1 X71.21 Y-16.344 E.02285
G1 X71.52 Y-15.877 E.01802
G1 X71.821 Y-15.233 E.02286
G1 X72.003 Y-14.69 E.0184
G1 X72.092 Y-14.237 E.01484
G1 X72.162 Y-13.415 E.02655
G1 X72.162 Y67.479 E2.60124
G1 X72.096 Y68.268 E.02549
G1 X71.986 Y68.816 E.01796
G1 X71.743 Y69.484 E.02287
G1 X71.494 Y69.986 E.01802
G1 X71.086 Y70.569 E.02286
G1 X70.715 Y70.989 E.01802
G1 X70.171 Y71.447 E.02286
G1 X69.704 Y71.757 E.01802
G1 X69.06 Y72.058 E.02286
G1 X68.528 Y72.236 E.01802
G1 X67.825 Y72.361 E.02299
G1 X67.254 Y72.399 E.0184
G1 X-68.652 Y72.399 E4.37022
G1 X-69.441 Y72.333 E.02549
G1 X-69.989 Y72.222 E.01796
G1 X-70.657 Y71.98 E.02287
G1 X-71.159 Y71.73 E.01802
G1 X-71.742 Y71.323 E.02286
G1 X-72.162 Y70.952 E.01802
G1 X-72.62 Y70.408 E.02286
G1 X-72.93 Y69.94 E.01802
G1 X-73.231 Y69.296 E.02286
G1 X-73.409 Y68.765 E.01802
G1 X-73.534 Y68.061 E.02299
G1 X-73.572 Y67.49 E.0184
G1 X-73.572 Y-13.415 E2.60162
G1 X-73.506 Y-14.205 E.02549
M73 P1 R104
G1 X-73.395 Y-14.752 E.01796
G1 X-73.153 Y-15.421 E.02287
G1 X-72.903 Y-15.923 E.01802
G1 X-72.496 Y-16.505 E.02286
G1 X-72.125 Y-16.926 E.01802
G1 X-71.581 Y-17.383 E.02286
G1 X-71.113 Y-17.693 E.01802
G1 X-70.469 Y-17.994 E.02287
G1 X-69.938 Y-18.172 E.01802
G1 X-69.234 Y-18.297 E.02298
G1 X-68.663 Y-18.335 E.0184
G1 X-63.21 Y-18.335 E.17536
G1 X-63.21 Y-17.928 F10800
G1 F2700
G1 X67.244 Y-17.928 E4.19491
G1 X67.795 Y-17.89 E.01777
G1 X68.457 Y-17.766 E.02167
G1 X69.052 Y-17.555 E.02028
G1 X69.52 Y-17.328 E.01672
G1 X69.906 Y-17.073 E.01488
G1 X70.455 Y-16.606 E.02319
G1 X70.879 Y-16.105 E.02111
G1 X71.159 Y-15.685 E.01623
G1 X71.44 Y-15.088 E.02121
G1 X71.606 Y-14.593 E.01678
G1 X71.687 Y-14.187 E.01331
G1 X71.755 Y-13.392 E.02565
G1 X71.755 Y67.457 E2.59981
G1 X71.693 Y68.204 E.02412
G1 X71.595 Y68.697 E.01616
G1 X71.371 Y69.317 E.02122
G1 X71.147 Y69.77 E.01624
G1 X70.77 Y70.311 E.02121
G1 X70.436 Y70.69 E.01624
G1 X69.932 Y71.116 E.02121
G1 X69.512 Y71.396 E.01624
G1 X68.915 Y71.676 E.02121
G1 X68.436 Y71.838 E.01624
G1 X67.782 Y71.955 E.02138
G1 X67.236 Y71.992 E.01759
G1 X-68.63 Y71.992 E4.36894
G1 X-69.377 Y71.93 E.02412
G1 X-69.87 Y71.831 E.01616
G1 X-70.49 Y71.607 E.02121
G1 X-70.943 Y71.383 E.01624
G1 X-71.484 Y71.006 E.02121
G1 X-71.863 Y70.673 E.01624
G1 X-72.289 Y70.169 E.02121
G1 X-72.569 Y69.748 E.01624
G1 X-72.849 Y69.151 E.02121
G1 X-73.011 Y68.673 E.01624
G1 X-73.128 Y68.018 E.02138
G1 X-73.165 Y67.473 E.01759
G1 X-73.165 Y-13.393 E2.60034
G1 X-73.103 Y-14.14 E.02412
G1 X-73.004 Y-14.633 E.01616
G1 X-72.78 Y-15.254 E.02122
G1 X-72.556 Y-15.706 E.01624
G1 X-72.179 Y-16.248 E.02121
G1 X-71.846 Y-16.627 E.01624
G1 X-71.342 Y-17.052 E.02121
G1 X-70.921 Y-17.332 E.01624
G1 X-70.324 Y-17.613 E.02122
G1 X-69.846 Y-17.774 E.01624
G1 X-69.191 Y-17.891 E.02138
G1 X-68.646 Y-17.928 E.01759
G1 X-63.25 Y-17.928 E.17351
G1 X-63.25 Y-17.521 F10800
G1 F2700
G1 X67.225 Y-17.521 E4.19561
G1 X67.75 Y-17.484 E.01692
G1 X68.342 Y-17.374 E.01936
G1 X68.888 Y-17.182 E.01862
G1 X69.31 Y-16.977 E.01508
G1 X69.655 Y-16.751 E.01325
G1 X70.173 Y-16.31 E.02188
G1 X70.549 Y-15.865 E.01873
G1 X70.798 Y-15.492 E.01444
G1 X71.063 Y-14.929 E.02
G1 X71.21 Y-14.495 E.01471
G1 X71.282 Y-14.136 E.01177
G1 X71.348 Y-13.37 E.02475
G1 X71.348 Y67.435 E2.59837
G1 X71.29 Y68.14 E.02275
G1 X71.203 Y68.578 E.01437
G1 X70.998 Y69.151 E.01956
G1 X70.799 Y69.554 E.01445
G1 X70.453 Y70.054 E.01956
G1 X70.157 Y70.392 E.01445
G1 X69.693 Y70.785 E.01956
G1 X69.319 Y71.035 E.01445
G1 X68.769 Y71.295 E.01956
G1 X68.343 Y71.439 E.01445
G1 X67.739 Y71.549 E.01976
G1 X67.218 Y71.585 E.01678
G1 X-68.608 Y71.585 E4.36766
G1 X-69.313 Y71.527 E.02276
M73 P1 R103
G1 X-69.751 Y71.44 E.01437
G1 X-70.324 Y71.235 E.01956
G1 X-70.727 Y71.036 E.01445
G1 X-71.227 Y70.689 E.01956
G1 X-71.565 Y70.393 E.01445
G1 X-71.958 Y69.929 E.01956
G1 X-72.208 Y69.555 E.01445
G1 X-72.468 Y69.005 E.01956
G1 X-72.612 Y68.58 E.01445
G1 X-72.722 Y67.975 E.01976
G1 X-72.758 Y67.455 E.01677
G1 X-72.758 Y-13.371 E2.59906
G1 X-72.7 Y-14.076 E.02275
G1 X-72.613 Y-14.515 E.01437
G1 X-72.408 Y-15.087 E.01956
G1 X-72.209 Y-15.49 E.01445
G1 X-71.862 Y-15.99 E.01956
G1 X-71.566 Y-16.328 E.01445
G1 X-71.102 Y-16.722 E.01956
G1 X-70.728 Y-16.971 E.01445
G1 X-70.178 Y-17.231 E.01956
G1 X-69.753 Y-17.376 E.01445
G1 X-69.148 Y-17.486 E.01976
G1 X-68.628 Y-17.521 E.01678
G1 X-63.29 Y-17.521 E.17164
G1 X-63.29 Y-17.114 F10800
G1 F2700
G1 X67.207 Y-17.114 E4.1963
G1 X67.705 Y-17.079 E.01607
G1 X68.227 Y-16.981 E.01707
G1 X68.725 Y-16.807 E.01695
G1 X69.102 Y-16.626 E.01344
G1 X69.403 Y-16.429 E.01159
G1 X69.89 Y-16.014 E.02056
G1 X70.219 Y-15.625 E.01638
G1 X70.438 Y-15.298 E.01265
G1 X70.687 Y-14.77 E.01879
G1 X70.813 Y-14.397 E.01267
G1 X70.877 Y-14.085 E.01022
G1 X70.941 Y-13.347 E.02383
G1 X70.941 Y67.413 E2.59694
G1 X70.887 Y68.076 E.02141
G1 X70.812 Y68.46 E.01258
G1 X70.625 Y68.985 E.01791
G1 X70.451 Y69.339 E.01267
G1 X70.136 Y69.797 E.01791
G1 X69.876 Y70.094 E.01267
G1 X69.452 Y70.455 E.01791
G1 X69.125 Y70.675 E.01267
G1 X68.622 Y70.914 E.01791
G1 X68.249 Y71.041 E.01267
G1 X67.695 Y71.143 E.01814
G1 X67.2 Y71.178 E.01595
G1 X-68.586 Y71.178 E4.36638
G1 X-69.249 Y71.124 E.02141
G1 X-69.633 Y71.048 E.01258
G1 X-70.158 Y70.862 E.0179
G1 X-70.512 Y70.688 E.01267
G1 X-70.97 Y70.372 E.01791
G1 X-71.267 Y70.113 E.01267
G1 X-71.628 Y69.689 E.01791
G1 X-71.848 Y69.362 E.01267
G1 X-72.087 Y68.859 E.01791
G1 X-72.214 Y68.486 E.01267
G1 X-72.316 Y67.931 E.01814
G1 X-72.351 Y67.436 E.01595
G1 X-72.351 Y-13.349 E2.59778
G1 X-72.297 Y-14.013 E.02141
G1 X-72.221 Y-14.397 E.01258
G1 X-72.035 Y-14.921 E.01791
G1 X-71.861 Y-15.275 E.01267
G1 X-71.545 Y-15.734 E.01791
G1 X-71.286 Y-16.03 E.01267
G1 X-70.862 Y-16.392 E.01791
G1 X-70.535 Y-16.611 E.01267
G1 X-70.032 Y-16.85 E.01791
G1 X-69.659 Y-16.978 E.01267
G1 X-69.104 Y-17.08 E.01813
G1 X-68.609 Y-17.114 E.01595
G1 X-63.33 Y-17.114 E.16977
G1 X-63.33 Y-16.707 F10800
G1 F2700
G1 X67.26 Y-16.707 E4.19929
G1 X67.842 Y-16.647 E.01882
G1 X68.143 Y-16.584 E.00989
G1 X69.064 Y-16.168 E.0325
G1 X69.266 Y-16.022 E.00803
G1 X69.602 Y-15.717 E.01457
G1 X70.118 Y-15.028 E.02768
G1 X70.211 Y-14.841 E.00672
G1 X70.406 Y-14.298 E.01856
G1 X70.534 Y-13.427 E.0283
G1 X70.534 Y67.496 E2.60221
G1 X70.472 Y68.09 E.0192
G1 X70.405 Y68.402 E.01026
G1 X70.125 Y69.072 E.02334
G1 X70.044 Y69.215 E.00528
G1 X69.532 Y69.855 E.02637
G1 X69.369 Y69.998 E.00696
G1 X68.861 Y70.352 E.01994
G1 X68.668 Y70.447 E.00691
G1 X68.125 Y70.643 E.01855
G1 X67.254 Y70.771 E.0283
G1 X-68.669 Y70.771 E4.37081
G1 X-69.263 Y70.709 E.0192
G1 X-69.575 Y70.642 E.01026
G1 X-70.245 Y70.362 E.02334
G1 X-70.388 Y70.281 E.00528
G1 X-71.028 Y69.769 E.02637
G1 X-71.171 Y69.606 E.00696
G1 X-71.525 Y69.097 E.01994
G1 X-71.62 Y68.904 E.00691
G1 X-71.815 Y68.361 E.01855
G1 X-71.944 Y67.491 E.0283
G1 X-71.944 Y-13.433 E2.60221
G1 X-71.884 Y-14.005 E.0185
G1 X-71.694 Y-14.672 E.02233
G1 X-71.302 Y-15.37 E.02571
G1 X-70.983 Y-15.753 E.01607
G1 X-70.501 Y-16.143 E.01994
G1 X-69.885 Y-16.465 E.02234
G1 X-69.273 Y-16.642 E.02047
G1 X-68.671 Y-16.707 E.0195
G1 X-63.37 Y-16.707 E.17045
G1 X-63.37 Y-16.3 F10800
