; HEADER_BLOCK_START
; generated by OrcaSlicer 2.3.1 on 2026-03-06 at 10:40:59
; total layer number: 175
; filament_density: 1.27
; filament_diameter: 1.75
; max_z_height: 35.00
; HEADER_BLOCK_END

; THUMBNAIL_BLOCK_START

;
; THUMBNAIL_BLOCK_END

; external perimeters extrusion width = 0.45mm
; perimeters extrusion width = 0.45mm
; infill extrusion width = 0.45mm
; solid infill extrusion width = 0.45mm
; top infill extrusion width = 0.38mm
; support material extrusion width = 0.38mm
; first layer extrusion width = 0.45mm

; external perimeters extrusion width = 0.45mm
; perimeters extrusion width = 0.45mm
; infill extrusion width = 0.45mm
; solid infill extrusion width = 0.45mm
; top infill extrusion width = 0.38mm
; support material extrusion width = 0.38mm
; first layer extrusion width = 0.45mm

; EXECUTABLE_BLOCK_START
M73 P0 R184
M201 X5000 Y5000 Z1500 E5000
M203 X300 Y300 Z20 E30
M204 P5000 R5000 T5000
M205 X9.00 Y9.00 Z3.00 E2.50 ; sets the jerk limits, mm/sec
;TYPE:Custom
;STARTGCODE
M117 Initializing
; Set coordinate modes
G90 ; use absolute coordinates
M83 ; extruder relative mode
; Reset speed and extrusion rates
M200 D0 ; disable volumetric E
M220 S100 ; reset speed
; Set initial warmup temps
M117 Nozzle preheat
M104 S100 ; preheat extruder to no ooze temp
M140 S80 ; set bed temp
M190 S80 ; wait for bed final temp
M300 S40 P10 ; Bip
; Home
M117 Homing
G28 ; home all with default mesh bed level
; For ABL users put G29 for a leveling request
; Final warmup routine
M117 Final warmup
M104 S230 ; set extruder final temp
M109 S230 ; wait for extruder final temp
M190 S80 ; wait for bed final temp
M300 S440 P200     ; 1st beep for printer ready and allow some time to clean nozzle
M300 S0 P250       ; wait between dual beep
M300 S440 P200     ; 2nd beep for printer ready
G4 S10             ; wait to clean the nozzle
M300 S440 P200     ; 3rd beep for ready to start printing
; Prime line routine
M117 Printing prime line
;M900 K0; Disable Linear Advance (Marlin) for prime line
G92 E0.0; reset extrusion distance
G1 F3000 Z1
G1 X-150 Y0 Z0.4
G92 E0
G3 X0 Y-130 I150 Z0.3 E30 F2000
G92 E0.0 ; reset extrusion distance
; Final print adjustments
M117 Preparing to print
;M82 ; extruder absolute mode
M221 S95
M300 S40 P10 ; chirp
M117 Print SolarFoc1_box5; Display: Printing started...
G90
G21
M83 ; use relative distances for extrusion
; filament start gcode
M106 S0
;LAYER_CHANGE
;Z:0.2
;HEIGHT:0.2
;BEFORE_LAYER_CHANGE
G92 E0.0
;0.2
G1 E-6.5 F2400
;AFTER_LAYER_CHANGE
;0.2
;_SET_FAN_SPEED_CHANGING_LAYER
M204 S3000
G1 Z.5 F10800
G1 X-62.482 Y-36.975
G1 Z.5
G1 Z.2
G1 E6.5 F2400
;TYPE:Skirt
;WIDTH:0.45
G1 F3000
G1 X-39.065 Y-46.504 E.81294
G1 X-38.242 Y-46.811 E.02824
G1 X-36.789 Y-47.182 E.04823
G1 X-34.932 Y-47.354 E.05997
G1 X35.469 Y-47.34 E2.26384
G1 X37.642 Y-47.026 E.0706
G1 X39.354 Y-46.438 E.05823
G1 X72.32 Y-31.935 E1.15812
G1 X73.917 Y-30.882 E.06151
G1 X75.332 Y-29.562 E.06222
G1 X76.631 Y-27.827 E.06968
G1 X77.038 Y-27.096 E.02691
G1 X77.623 Y-25.748 E.04726
G1 X78.138 Y-23.812 E.06443
G1 X78.316 Y-21.848 E.06341
G1 X78.316 Y59.152 E2.60467
G1 X78.126 Y61.177 E.06539
G1 X77.756 Y62.666 E.04934
G1 X77.467 Y63.455 E.02702
G1 X76.904 Y64.658 E.04273
G1 X76.474 Y65.377 E.02691
G1 X75.135 Y67.08 E.06968
G1 X74.534 Y67.663 E.02692
G1 X73.383 Y68.577 E.04728
G1 X72.069 Y69.369 E.04934
G1 X71.306 Y69.722 E.02702
G1 X70.057 Y70.175 E.04273
G1 X69.245 Y70.38 E.02692
G1 X67.825 Y70.594 E.04618
G1 X66.821 Y70.648 E.03235
G1 X-69.179 Y70.648 E4.37327
G1 X-71.204 Y70.457 E.06539
M73 P0 R183
G1 X-72.693 Y70.088 E.04934
G1 X-73.482 Y69.798 E.02702
G1 X-74.685 Y69.235 E.04272
G1 X-75.404 Y68.806 E.02692
G1 X-77.107 Y67.466 E.06968
G1 X-77.69 Y66.866 E.02692
G1 X-78.605 Y65.714 E.04728
G1 X-79.397 Y64.4 E.04934
G1 X-79.75 Y63.638 E.02701
G1 X-80.202 Y62.389 E.04272
G1 X-80.407 Y61.577 E.02692
G1 X-80.621 Y60.157 E.04619
G1 X-80.675 Y59.152 E.03235
G1 X-80.675 Y-21.848 E2.60467
G1 X-80.484 Y-23.872 E.06539
G1 X-80.115 Y-25.362 E.04935
G1 X-79.825 Y-26.151 E.02702
G1 X-79.262 Y-27.354 E.04273
G1 X-78.833 Y-28.073 E.02691
G1 X-77.494 Y-29.776 E.06968
G1 X-76.893 Y-30.359 E.02692
G1 X-75.741 Y-31.274 E.04728
G1 X-74.427 Y-32.065 E.04934
G1 X-73.422 Y-32.524 E.03552
G1 X-62.519 Y-36.96 E.37852
G1 X-62.366 Y-36.583 F10800
G1 F3000
G1 X-38.912 Y-46.127 E.81423
G1 X-38.101 Y-46.429 E.02782
G1 X-36.704 Y-46.783 E.04636
G1 X-34.932 Y-46.947 E.05721
G1 X35.44 Y-46.933 E2.26291
G1 X37.555 Y-46.629 E.06873
G1 X39.191 Y-46.065 E.05563
G1 X72.138 Y-31.571 E1.15746
G1 X73.669 Y-30.559 E.05901
G1 X75.019 Y-29.301 E.05933
G1 X76.291 Y-27.603 E.06821
G1 X77.237 Y-25.62 E.07067
G1 X77.738 Y-23.735 E.06272
G1 X77.909 Y-21.848 E.06092
G1 X77.909 Y59.152 E2.60467
G1 X77.727 Y61.095 E.06274
G1 X77.374 Y62.526 E.04739
G1 X77.085 Y63.314 E.02702
G1 X76.142 Y65.142 E.06614
G1 X74.831 Y66.81 E.06821
G1 X73.159 Y68.238 E.07069
G1 X71.898 Y69 E.04739
G1 X71.135 Y69.353 E.02702
G1 X69.176 Y69.978 E.06614
G1 X67.799 Y70.188 E.04479
G1 X66.821 Y70.241 E.03149
G1 X-69.179 Y70.241 E4.37327
G1 X-71.122 Y70.058 E.06274
G1 X-72.553 Y69.706 E.04739
G1 X-73.342 Y69.416 E.02702
G1 X-75.169 Y68.473 E.06614
G1 X-76.837 Y67.162 E.06821
G1 X-78.265 Y65.49 E.07069
G1 X-79.027 Y64.229 E.04739
G1 X-79.38 Y63.467 E.02701
G1 X-80.006 Y61.507 E.06614
G1 X-80.215 Y60.13 E.0448
G1 X-80.268 Y59.152 E.03149
G1 X-80.268 Y-21.848 E2.60467
G1 X-80.086 Y-23.791 E.06274
G1 X-79.733 Y-25.222 E.04739
G1 X-79.443 Y-26.01 E.02702
G1 X-78.5 Y-27.838 E.06614
G1 X-77.189 Y-29.506 E.06821
G1 X-75.517 Y-30.934 E.0707
G1 X-74.256 Y-31.696 E.04739
G1 X-73.269 Y-32.147 E.03491
G1 X-62.403 Y-36.568 E.37723
; printing object SolarFoc1_box5.stl id:0 copy 0
G1 E-5.7 F2400
;WIPE_START
G1 F3000
G1 X-61.476 Y-36.945 E-.8
;WIPE_END
G1 Z.5 F10800
G1 X-62.403 Y-27.529 Z.5
G1 Z.2
G1 E6.5 F2400
;TYPE:Brim
G1 F2700
G1 X66.814 Y-27.529 E4.15514
G1 X67.438 Y-27.488 E.02012
G1 X67.683 Y-27.456 E.00792
G1 X68.345 Y-27.32 E.02174
G1 X69.106 Y-27.041 E.02607
G1 X69.709 Y-26.74 E.02166
G1 X70.176 Y-26.424 E.01812
G1 X70.372 Y-26.274 E.00796
G1 X70.877 Y-25.825 E.02174
G1 X71.399 Y-25.2 E.02616
G1 X71.769 Y-24.639 E.0216
G1 X72.11 Y-23.902 E.02613
G1 X72.323 Y-23.263 E.02166
G1 X72.427 Y-22.721 E.01775
G1 X72.502 Y-21.839 E.02845
G1 X72.502 Y59.143 E2.60411
G1 X72.428 Y60.019 E.02827
G1 X72.293 Y60.677 E.02158
G1 X72.013 Y61.441 E.02616
G1 X71.712 Y62.041 E.0216
G1 X71.244 Y62.706 E.02616
G1 X70.798 Y63.209 E.0216
G1 X70.173 Y63.73 E.02616
G1 X69.612 Y64.1 E.0216
G1 X68.874 Y64.442 E.02616
G1 X68.236 Y64.654 E.0216
G1 X67.434 Y64.793 E.02618
G1 X66.814 Y64.833 E.01998
G1 X-69.171 Y64.833 E4.37277
G1 X-70.046 Y64.759 E.02827
G1 X-70.704 Y64.624 E.02158
G1 X-71.468 Y64.344 E.02616
G1 X-72.068 Y64.043 E.0216
G1 X-72.734 Y63.575 E.02616
G1 X-73.236 Y63.129 E.0216
G1 X-73.757 Y62.504 E.02616
G1 X-74.127 Y61.943 E.0216
G1 X-74.469 Y61.205 E.02616
G1 X-74.681 Y60.568 E.0216
G1 X-74.82 Y59.765 E.02618
G1 X-74.861 Y59.145 E.01998
G1 X-74.861 Y-21.839 E2.60418
G1 X-74.786 Y-22.715 E.02826
G1 X-74.652 Y-23.373 E.02158
G1 X-74.371 Y-24.137 E.02616
G1 X-74.07 Y-24.737 E.0216
G1 X-73.602 Y-25.402 E.02616
G1 X-73.156 Y-25.905 E.0216
G1 X-72.531 Y-26.426 E.02616
G1 X-71.97 Y-26.796 E.0216
G1 X-71.232 Y-27.137 E.02616
G1 X-70.595 Y-27.35 E.0216
G1 X-69.793 Y-27.489 E.02618
G1 X-69.173 Y-27.529 E.01998
G1 X-62.443 Y-27.529 E.21641
G1 X-62.443 Y-27.122 F10800
G1 F2700
G1 X66.805 Y-27.122 E4.15613
G1 X67.409 Y-27.082 E.01947
G1 X68.222 Y-26.93 E.0266
G1 X68.938 Y-26.669 E.0245
G1 X69.496 Y-26.392 E.02003
G1 X69.934 Y-26.096 E.01701
G1 X70.576 Y-25.548 E.02713
G1 X71.067 Y-24.962 E.02459
G1 X71.407 Y-24.448 E.01981
G1 X71.728 Y-23.758 E.02449
G1 X71.926 Y-23.167 E.02003
G1 X72.022 Y-22.671 E.01624
G1 X72.095 Y-21.817 E.02757
G1 X72.095 Y59.121 E2.60267
G1 X72.025 Y59.954 E.02687
G1 X71.902 Y60.556 E.01977
G1 X71.641 Y61.272 E.02452
G1 X71.366 Y61.824 E.01981
G1 X70.928 Y62.448 E.02451
G1 X70.519 Y62.909 E.01981
G1 X69.935 Y63.398 E.02451
G1 X69.421 Y63.738 E.01981
G1 X68.73 Y64.06 E.02452
G1 X68.146 Y64.255 E.01981
G1 X67.392 Y64.387 E.02459
G1 X66.797 Y64.426 E.01919
G1 X-69.148 Y64.426 E4.3715
G1 X-69.981 Y64.356 E.02687
G1 X-70.583 Y64.234 E.01977
G1 X-71.299 Y63.972 E.02451
G1 X-71.851 Y63.697 E.01981
G1 X-72.475 Y63.259 E.02452
G1 X-72.936 Y62.851 E.01981
G1 X-73.425 Y62.266 E.02451
G1 X-73.765 Y61.752 E.01981
G1 X-74.087 Y61.061 E.02451
G1 X-74.282 Y60.477 E.01981
G1 X-74.414 Y59.724 E.02459
G1 X-74.453 Y59.128 E.01919
G1 X-74.453 Y-21.817 E2.6029
G1 X-74.383 Y-22.65 E.02687
G1 X-74.261 Y-23.252 E.01977
G1 X-73.999 Y-23.968 E.02452
G1 X-73.724 Y-24.52 E.01981
G1 X-73.286 Y-25.144 E.02451
G1 X-72.878 Y-25.605 E.01981
G1 X-72.293 Y-26.094 E.02451
G1 X-71.779 Y-26.434 E.01981
G1 X-71.088 Y-26.756 E.02451
G1 X-70.504 Y-26.951 E.01981
G1 X-69.751 Y-27.083 E.02459
G1 X-69.155 Y-27.122 E.01919
G1 X-62.483 Y-27.122 E.21457
G1 X-62.483 Y-26.715 F10800
G1 F2700
G1 X66.787 Y-26.715 E4.15684
G1 X67.365 Y-26.676 E.01862
G1 X68.105 Y-26.538 E.0242
G1 X68.771 Y-26.297 E.02278
G1 X69.283 Y-26.043 E.0184
G1 X69.682 Y-25.775 E.01544
G1 X70.278 Y-25.267 E.02519
G1 X70.736 Y-24.724 E.02285
G1 X71.046 Y-24.257 E.01802
G1 X71.346 Y-23.613 E.02284
G1 X71.529 Y-23.071 E.01841
G1 X71.617 Y-22.621 E.01473
G1 X71.688 Y-21.794 E.02668
G1 X71.688 Y59.099 E2.60123
G1 X71.622 Y59.889 E.02549
G1 X71.511 Y60.436 E.01796
G1 X71.269 Y61.105 E.02287
G1 X71.019 Y61.606 E.01802
G1 X70.612 Y62.189 E.02286
G1 X70.241 Y62.609 E.01802
G1 X69.697 Y63.067 E.02286
G1 X69.23 Y63.377 E.01802
G1 X68.585 Y63.678 E.02287
G1 X68.054 Y63.856 E.01802
G1 X67.35 Y63.981 E.02298
G1 X66.779 Y64.019 E.0184
G1 X-69.126 Y64.019 E4.37022
G1 X-69.916 Y63.953 E.02549
G1 X-70.463 Y63.843 E.01796
G1 X-71.132 Y63.6 E.02286
G1 X-71.634 Y63.35 E.01802
G1 X-72.216 Y62.943 E.02287
G1 X-72.637 Y62.572 E.01802
G1 X-73.094 Y62.028 E.02286
G1 X-73.404 Y61.561 E.01802
G1 X-73.705 Y60.917 E.02286
G1 X-73.883 Y60.385 E.01802
G1 X-74.008 Y59.681 E.02299
G1 X-74.046 Y59.111 E.0184
G1 X-74.046 Y-21.795 E2.60162
G1 X-73.98 Y-22.585 E.02549
G1 X-73.87 Y-23.132 E.01796
G1 X-73.627 Y-23.801 E.02287
G1 X-73.377 Y-24.302 E.01802
G1 X-72.97 Y-24.885 E.02286
G1 X-72.599 Y-25.305 E.01802
G1 X-72.055 Y-25.763 E.02286
G1 X-71.588 Y-26.073 E.01802
G1 X-70.944 Y-26.374 E.02286
G1 X-70.412 Y-26.552 E.01802
G1 X-69.709 Y-26.677 E.02299
G1 X-69.138 Y-26.715 E.0184
G1 X-62.523 Y-26.715 E.21272
G1 X-62.523 Y-26.308 F10800
G1 F2700
G1 X66.769 Y-26.308 E4.15755
G1 X67.321 Y-26.27 E.01778
G1 X67.988 Y-26.146 E.02182
G1 X68.604 Y-25.924 E.02105
G1 X69.071 Y-25.693 E.01677
G1 X69.43 Y-25.454 E.01386
G1 X69.981 Y-24.986 E.02325
G1 X70.405 Y-24.485 E.02111
G1 X70.685 Y-24.064 E.01623
G1 X70.965 Y-23.468 E.02119
G1 X71.132 Y-22.973 E.01679
G1 X71.212 Y-22.571 E.0132
G1 X71.281 Y-21.772 E.02579
G1 X71.281 Y59.077 E2.59979
G1 X71.219 Y59.824 E.02412
G1 X71.12 Y60.317 E.01616
G1 X70.896 Y60.937 E.02121
G1 X70.672 Y61.39 E.01624
G1 X70.295 Y61.931 E.02121
G1 X69.962 Y62.31 E.01624
G1 X69.458 Y62.736 E.02121
G1 X69.037 Y63.016 E.01624
G1 X68.44 Y63.296 E.02122
G1 X67.962 Y63.458 E.01624
G1 X67.307 Y63.575 E.02138
G1 X66.762 Y63.612 E.01759
G1 X-69.104 Y63.612 E4.36894
G1 X-69.851 Y63.55 E.02412
G1 X-70.344 Y63.451 E.01616
G1 X-70.965 Y63.228 E.02121
G1 X-71.417 Y63.003 E.01624
G1 X-71.959 Y62.627 E.02122
G1 X-72.338 Y62.293 E.01624
G1 X-72.763 Y61.789 E.02121
G1 X-73.043 Y61.368 E.01624
G1 X-73.324 Y60.771 E.02121
G1 X-73.485 Y60.293 E.01624
G1 X-73.602 Y59.639 E.02138
G1 X-73.639 Y59.093 E.01759
G1 X-73.639 Y-21.773 E2.60034
G1 X-73.577 Y-22.52 E.02412
G1 X-73.479 Y-23.013 E.01616
G1 X-73.255 Y-23.633 E.02122
G1 X-73.031 Y-24.086 E.01624
G1 X-72.654 Y-24.627 E.02121
G1 X-72.32 Y-25.006 E.01624
G1 X-71.816 Y-25.432 E.02121
G1 X-71.396 Y-25.712 E.01624
G1 X-70.799 Y-25.992 E.02121
G1 X-70.32 Y-26.154 E.01624
G1 X-69.666 Y-26.271 E.02138
G1 X-69.12 Y-26.308 E.01759
G1 X-62.563 Y-26.308 E.21086
G1 X-62.563 Y-25.901 F10800
G1 F2700
G1 X66.751 Y-25.901 E4.15825
G1 X67.276 Y-25.864 E.01693
G1 X67.871 Y-25.753 E.01947
G1 X68.438 Y-25.552 E.01934
G1 X68.86 Y-25.344 E.01514
G1 X69.178 Y-25.133 E.01227
G1 X69.698 Y-24.69 E.02196
G1 X70.075 Y-24.245 E.01874
G1 X70.324 Y-23.871 E.01444
G1 X70.589 Y-23.309 E.01998
G1 X70.735 Y-22.875 E.01473
G1 X70.807 Y-22.52 E.01167
G1 X70.874 Y-21.749 E.02488
G1 X70.874 Y59.055 E2.59836
G1 X70.816 Y59.76 E.02276
M73 P0 R182
G1 X70.729 Y60.198 E.01437
G1 X70.524 Y60.771 E.01956
G1 X70.325 Y61.174 E.01445
G1 X69.979 Y61.674 E.01956
G1 X69.682 Y62.012 E.01445
G1 X69.218 Y62.405 E.01956
G1 X68.844 Y62.655 E.01445
G1 X68.294 Y62.915 E.01956
G1 X67.869 Y63.06 E.01445
G1 X67.264 Y63.169 E.01976
G1 X66.744 Y63.205 E.01678
G1 X-69.082 Y63.205 E4.36766
G1 X-69.787 Y63.147 E.02276
G1 X-70.225 Y63.06 E.01437
G1 X-70.798 Y62.855 E.01956
G1 X-71.201 Y62.656 E.01445
G1 X-71.701 Y62.31 E.01956
G1 X-72.039 Y62.013 E.01445
G1 X-72.433 Y61.549 E.01956
G1 X-72.682 Y61.176 E.01445
G1 X-72.942 Y60.626 E.01956
G1 X-73.087 Y60.2 E.01445
G1 X-73.196 Y59.595 E.01976
G1 X-73.232 Y59.075 E.01678
G1 X-73.232 Y-21.751 E2.59906
G1 X-73.174 Y-22.456 E.02275
G1 X-73.087 Y-22.894 E.01437
G1 X-72.882 Y-23.467 E.01956
G1 X-72.683 Y-23.87 E.01445
G1 X-72.337 Y-24.37 E.01956
G1 X-72.04 Y-24.708 E.01445
G1 X-71.576 Y-25.101 E.01956
G1 X-71.203 Y-25.351 E.01445
G1 X-70.653 Y-25.611 E.01956
G1 X-70.227 Y-25.755 E.01445
G1 X-69.623 Y-25.865 E.01976
G1 X-69.102 Y-25.901 E.01678
G1 X-62.603 Y-25.901 E.209
G1 X-62.603 Y-25.494 F10800
G1 F2700
G1 X66.732 Y-25.494 E4.15895
G1 X67.231 Y-25.458 E.01608
G1 X67.756 Y-25.361 E.01715
G1 X68.272 Y-25.178 E.01762
G1 X68.65 Y-24.993 E.01352
G1 X68.927 Y-24.811 E.01066
G1 X69.415 Y-24.394 E.02066
G1 X69.744 Y-24.005 E.01638
G1 X69.964 Y-23.678 E.01265
G1 X70.213 Y-23.15 E.01876
G1 X70.339 Y-22.777 E.01268
G1 X70.402 Y-22.468 E.01012
G1 X70.467 Y-21.726 E.02396
G1 X70.467 Y59.033 E2.59692
G1 X70.413 Y59.697 E.02141
G1 X70.337 Y60.081 E.01258
G1 X70.151 Y60.605 E.0179
G1 X69.977 Y60.959 E.01267
G1 X69.661 Y61.417 E.01791
G1 X69.402 Y61.714 E.01267
G1 X68.978 Y62.075 E.01791
G1 X68.651 Y62.295 E.01267
G1 X68.148 Y62.534 E.01791
G1 X67.775 Y62.661 E.01267
G1 X67.22 Y62.764 E.01813
G1 X66.726 Y62.798 E.01595
G1 X-69.06 Y62.798 E4.36638
G1 X-69.724 Y62.744 E.02141
G1 X-70.108 Y62.668 E.01258
G1 X-70.632 Y62.482 E.0179
G1 X-70.986 Y62.308 E.01267
G1 X-71.445 Y61.992 E.01791
G1 X-71.741 Y61.733 E.01267
G1 X-72.103 Y61.309 E.01791
G1 X-72.322 Y60.982 E.01267
G1 X-72.561 Y60.479 E.0179
G1 X-72.689 Y60.106 E.01267
G1 X-72.791 Y59.552 E.01814
G1 X-72.825 Y59.057 E.01595
G1 X-72.825 Y-21.729 E2.59778
G1 X-72.771 Y-22.393 E.02141
G1 X-72.695 Y-22.777 E.01258
G1 X-72.509 Y-23.301 E.01791
G1 X-72.335 Y-23.655 E.01267
G1 X-72.019 Y-24.113 E.0179
G1 X-71.76 Y-24.41 E.01267
G1 X-71.336 Y-24.771 E.01791
G1 X-71.009 Y-24.991 E.01267
G1 X-70.506 Y-25.23 E.0179
G1 X-70.133 Y-25.357 E.01267
G1 X-69.579 Y-25.46 E.01813
G1 X-69.084 Y-25.494 E.01595
G1 X-62.643 Y-25.494 E.20713
G1 X-62.643 Y-25.087 F10800
G1 F2700
G1 X66.785 Y-25.087 E4.16193
G1 X67.378 Y-25.025 E.01917
G1 X67.69 Y-24.958 E.01024
G1 X68.36 Y-24.678 E.02337
G1 X68.503 Y-24.597 E.00528
G1 X69.144 Y-24.085 E.02639
G1 X69.287 Y-23.922 E.00696
G1 X69.641 Y-23.413 E.01994
G1 X69.736 Y-23.221 E.00691
G1 X69.931 Y-22.679 E.01851
G1 X70.06 Y-21.807 E.02835
G1 X70.06 Y59.116 E2.6022
G1 X69.998 Y59.71 E.0192
G1 X69.931 Y60.022 E.01026
G1 X69.651 Y60.692 E.02334
G1 X69.57 Y60.835 E.00528
G1 X69.058 Y61.476 E.02637
G1 X68.895 Y61.618 E.00696
G1 X68.386 Y61.972 E.01994
G1 X68.193 Y62.068 E.00691
G1 X67.651 Y62.263 E.01855
G1 X66.78 Y62.391 E.02829
G1 X-69.144 Y62.391 E4.37081
G1 X-69.738 Y62.329 E.0192
G1 X-70.05 Y62.262 E.01026
G1 X-70.719 Y61.982 E.02334
G1 X-70.862 Y61.901 E.00528
G1 X-71.503 Y61.389 E.02637
G1 X-71.645 Y61.226 E.00696
G1 X-72 Y60.717 E.01994
G1 X-72.095 Y60.525 E.00691
G1 X-72.29 Y59.982 E.01855
G1 X-72.418 Y59.111 E.0283
G1 X-72.418 Y-21.811 E2.60216
G1 X-72.341 Y-22.482 E.02172
G1 X-72.151 Y-23.098 E.02072
G1 X-71.85 Y-23.648 E.02016
