; HEADER_BLOCK_START
; generated by OrcaSlicer 2.3.1 on 2026-03-05 at 18:22:10
; total layer number: 175
; filament_density: 1.27
; filament_diameter: 1.75
; max_z_height: 35.00
; HEADER_BLOCK_END

; THUMBNAIL_BLOCK_START

;
; THUMBNAIL_BLOCK_END

; external perimeters extrusion width = 0.45mm
; perimeters extrusion width = 0.45mm
; infill extrusion width = 0.45mm
; solid infill extrusion width = 0.45mm
; top infill extrusion width = 0.38mm
; support material extrusion width = 0.38mm
; first layer extrusion width = 0.45mm

; EXECUTABLE_BLOCK_START
M73 P0 R182
M201 X5000 Y5000 Z1500 E5000
M203 X300 Y300 Z20 E30
M204 P5000 R5000 T5000
M205 X9.00 Y9.00 Z3.00 E2.50 ; sets the jerk limits, mm/sec
;TYPE:Custom
;STARTGCODE
M117 Initializing
; Set coordinate modes
G90 ; use absolute coordinates
M83 ; extruder relative mode
; Reset speed and extrusion rates
M200 D0 ; disable volumetric E
M220 S100 ; reset speed
; Set initial warmup temps
M117 Nozzle preheat
M104 S100 ; preheat extruder to no ooze temp
M140 S80 ; set bed temp
M190 S80 ; wait for bed final temp
M300 S40 P10 ; Bip
; Home
M117 Homing
G28 ; home all with default mesh bed level
; For ABL users put G29 for a leveling request
; Final warmup routine
M117 Final warmup
M104 S230 ; set extruder final temp
M109 S230 ; wait for extruder final temp
M190 S80 ; wait for bed final temp
M300 S440 P200     ; 1st beep for printer ready and allow some time to clean nozzle
M300 S0 P250       ; wait between dual beep
M300 S440 P200     ; 2nd beep for printer ready
G4 S10             ; wait to clean the nozzle
M300 S440 P200     ; 3rd beep for ready to start printing
; Prime line routine
M117 Printing prime line
;M900 K0; Disable Linear Advance (Marlin) for prime line
G92 E0.0; reset extrusion distance
G1 F3000 Z1
G1 X-150 Y0 Z0.4
G92 E0
G3 X0 Y-130 I150 Z0.3 E30 F2000
G92 E0.0 ; reset extrusion distance
; Final print adjustments
M117 Preparing to print
;M82 ; extruder absolute mode
M221 S95
M300 S40 P10 ; chirp
M117 Print SolarFoc1_box3; Display: Printing started...
G90
G21
M83 ; use relative distances for extrusion
; filament start gcode
M106 S0
;LAYER_CHANGE
;Z:0.2
;HEIGHT:0.2
;BEFORE_LAYER_CHANGE
G92 E0.0
;0.2
G1 E-6.5 F2400
;AFTER_LAYER_CHANGE
;0.2
;_SET_FAN_SPEED_CHANGING_LAYER
M204 S3000
G1 Z.5 F10800
G1 X-65.779 Y-38.047
G1 Z.5
G1 Z.2
G1 E6.5 F2400
;TYPE:Skirt
;WIDTH:0.45
G1 F3000
G1 X69.394 Y-38.047 E4.34667
G1 X71.418 Y-37.857 E.06537
M73 P0 R181
G1 X72.907 Y-37.487 E.04934
G1 X73.696 Y-37.198 E.02702
G1 X75.533 Y-36.264 E.06626
G1 X76.49 Y-35.586 E.03772
G1 X77.322 Y-34.866 E.03536
G1 X77.904 Y-34.265 E.02692
G1 X78.819 Y-33.114 E.04728
G1 X79.611 Y-31.8 E.04934
G1 X79.964 Y-31.037 E.02702
G1 X80.602 Y-29.078 E.06626
G1 X80.869 Y-27.025 E.06658
G1 X80.869 Y54.921 E2.63509
G1 X80.558 Y57.157 E.07258
G1 X80.04 Y58.751 E.0539
G1 X79.477 Y59.954 E.04273
G1 X78.563 Y61.36 E.05389
G1 X77.708 Y62.376 E.04272
G1 X77.107 Y62.959 E.02692
G1 X75.956 Y63.874 E.04728
G1 X74.641 Y64.666 E.04934
G1 X72.63 Y65.472 E.06968
G1 X70.99 Y65.819 E.0539
G1 X69.393 Y65.944 E.0515
G1 X-66.607 Y65.944 E4.37327
G1 X-67.976 Y65.848 E.04415
G1 X-69.315 Y65.613 E.04372
G1 X-70.909 Y65.094 E.0539
G1 X-72.113 Y64.531 E.04272
G1 X-73.518 Y63.618 E.0539
G1 X-74.535 Y62.763 E.04273
G1 X-75.118 Y62.162 E.02692
G1 X-76.032 Y61.011 E.04728
G1 X-76.824 Y59.696 E.04934
G1 X-77.63 Y57.685 E.06968
G1 X-77.978 Y56.045 E.0539
G1 X-78.102 Y54.448 E.0515
G1 X-78.102 Y-26.552 E2.60467
G1 X-78.006 Y-27.921 E.04415
G1 X-77.771 Y-29.26 E.04372
G1 X-77.253 Y-30.855 E.0539
G1 X-76.69 Y-32.058 E.04273
G1 X-75.776 Y-33.463 E.05389
G1 X-74.921 Y-34.48 E.04272
G1 X-74.32 Y-35.063 E.02692
G1 X-73.169 Y-35.977 E.04728
G1 X-71.855 Y-36.769 E.04934
G1 X-69.843 Y-37.575 E.06968
G1 X-68.203 Y-37.923 E.0539
G1 X-66.607 Y-38.047 E.0515
G1 X-65.819 Y-38.047 E.02534
G1 X-65.819 Y-37.64 F10800
G1 F3000
G1 X69.394 Y-37.64 E4.34795
G1 X71.336 Y-37.458 E.06272
G1 X72.767 Y-37.105 E.04739
G1 X73.556 Y-36.816 E.02702
G1 X75.305 Y-35.927 E.06308
G1 X76.242 Y-35.263 E.03694
G1 X77.051 Y-34.562 E.03443
G1 X78.479 Y-32.89 E.0707
G1 X79.241 Y-31.629 E.04739
G1 X79.594 Y-30.866 E.02702
G1 X80.203 Y-29.001 E.06308
G1 X80.463 Y-26.991 E.0652
G1 X80.463 Y54.887 E2.63289
G1 X80.159 Y57.075 E.07104
G1 X79.657 Y58.611 E.05195
G1 X79.113 Y59.772 E.04126
G1 X78.23 Y61.125 E.05194
G1 X77.403 Y62.106 E.04125
G1 X75.732 Y63.534 E.07069
G1 X74.47 Y64.296 E.04739
G1 X72.501 Y65.085 E.06821
G1 X70.921 Y65.418 E.05195
G1 X69.393 Y65.537 E.04926
G1 X-66.607 Y65.537 E4.37327
G1 X-67.942 Y65.442 E.04304
G1 X-69.233 Y65.214 E.04218
G1 X-70.769 Y64.712 E.05195
G1 X-71.93 Y64.167 E.04125
G1 X-73.284 Y63.285 E.05195
G1 X-74.265 Y62.458 E.04125
G1 X-75.692 Y60.787 E.07069
G1 X-76.455 Y59.525 E.04739
G1 X-77.244 Y57.556 E.06821
G1 X-77.577 Y55.975 E.05195
G1 X-77.695 Y54.448 E.04926
G1 X-77.695 Y-26.552 E2.60467
G1 X-77.601 Y-27.887 E.04304
G1 X-77.373 Y-29.179 E.04218
G1 X-76.871 Y-30.714 E.05195
G1 X-76.326 Y-31.876 E.04126
G1 X-75.444 Y-33.229 E.05194
G1 X-74.617 Y-34.21 E.04125
G1 X-72.945 Y-35.637 E.0707
G1 X-71.684 Y-36.4 E.04739
G1 X-69.715 Y-37.189 E.06821
G1 X-68.134 Y-37.522 E.05195
G1 X-66.607 Y-37.64 E.04926
G1 X-65.859 Y-37.64 E.02405
; printing object SolarFoc1_box3.stl id:15 copy 0
G1 E-5.7 F2400
;WIPE_START
G1 F3000
G1 X-64.859 Y-37.64 E-.8
;WIPE_END
G1 Z.5 F10800
G1 X-65.859 Y-32.233 Z.5
G1 Z.2
G1 E6.5 F2400
;TYPE:Brim
G1 F2700
G1 X69.386 Y-32.233 E4.34896
G1 X70.261 Y-32.159 E.02824
G1 X70.918 Y-32.024 E.02158
G1 X71.682 Y-31.744 E.02616
G1 X72.284 Y-31.442 E.02166
G1 X72.748 Y-31.128 E.01801
G1 X72.945 Y-30.977 E.00797
G1 X73.45 Y-30.529 E.02174
G1 X73.971 Y-29.904 E.02616
G1 X74.341 Y-29.343 E.0216
G1 X74.683 Y-28.605 E.02616
G1 X74.896 Y-27.966 E.02166
G1 X75.001 Y-27.42 E.01786
G1 X75.075 Y-26.543 E.02831
G1 X75.075 Y54.44 E2.60411
G1 X75.001 Y55.315 E.02826
G1 X74.866 Y55.973 E.02158
G1 X74.585 Y56.737 E.02616
G1 X74.285 Y57.337 E.0216
G1 X73.816 Y58.003 E.02616
G1 X73.37 Y58.505 E.0216
G1 X72.746 Y59.026 E.02616
G1 X72.185 Y59.396 E.0216
G1 X71.446 Y59.738 E.02616
G1 X70.809 Y59.95 E.0216
G1 X70.007 Y60.089 E.02618
G1 X69.387 Y60.13 E.01998
G1 X-66.598 Y60.13 E4.37277
G1 X-67.474 Y60.056 E.02827
G1 X-68.131 Y59.921 E.02158
G1 X-68.895 Y59.64 E.02616
G1 X-69.496 Y59.339 E.0216
G1 X-70.161 Y58.871 E.02616
G1 X-70.663 Y58.425 E.0216
G1 X-71.184 Y57.8 E.02616
G1 X-71.554 Y57.24 E.0216
G1 X-71.896 Y56.501 E.02616
G1 X-72.108 Y55.864 E.0216
G1 X-72.247 Y55.062 E.02618
G1 X-72.288 Y54.442 E.01998
G1 X-72.288 Y-26.543 E2.60418
G1 X-72.214 Y-27.419 E.02826
G1 X-72.079 Y-28.077 E.02158
G1 X-71.799 Y-28.84 E.02616
G1 X-71.498 Y-29.441 E.0216
G1 X-71.029 Y-30.106 E.02616
G1 X-70.583 Y-30.608 E.0216
G1 X-69.959 Y-31.13 E.02616
G1 X-69.398 Y-31.499 E.0216
G1 X-68.66 Y-31.841 E.02616
G1 X-68.022 Y-32.053 E.0216
G1 X-67.22 Y-32.193 E.02618
G1 X-66.6 Y-32.233 E.01998
G1 X-65.899 Y-32.233 E.02255
G1 X-65.899 Y-31.826 F10800
G1 F2700
G1 X69.363 Y-31.826 E4.34953
G1 X70.195 Y-31.756 E.02685
G1 X70.798 Y-31.633 E.01977
G1 X71.514 Y-31.372 E.02452
G1 X72.071 Y-31.094 E.02003
G1 X72.507 Y-30.8 E.0169
G1 X73.149 Y-30.252 E.02713
G1 X73.64 Y-29.666 E.02458
G1 X73.979 Y-29.152 E.01981
G1 X74.301 Y-28.461 E.02451
G1 X74.498 Y-27.87 E.02003
G1 X74.596 Y-27.371 E.01636
G1 X74.668 Y-26.521 E.02743
G1 X74.668 Y54.417 E2.60267
G1 X74.598 Y55.25 E.02687
G1 X74.475 Y55.852 E.01977
G1 X74.214 Y56.569 E.02452
G1 X73.938 Y57.12 E.01981
G1 X73.501 Y57.744 E.02451
G1 X73.092 Y58.205 E.01981
G1 X72.508 Y58.694 E.02451
G1 X71.994 Y59.034 E.01981
G1 X71.303 Y59.356 E.02451
G1 X70.718 Y59.551 E.01981
G1 X69.965 Y59.683 E.02459
G1 X69.369 Y59.723 E.0192
G1 X-66.576 Y59.723 E4.3715
G1 X-67.408 Y59.653 E.02687
G1 X-68.011 Y59.53 E.01977
G1 X-68.727 Y59.268 E.02451
G1 X-69.278 Y58.993 E.01981
G1 X-69.902 Y58.555 E.02451
G1 X-70.363 Y58.147 E.01981
G1 X-70.853 Y57.562 E.02451
G1 X-71.193 Y57.049 E.01981
G1 X-71.514 Y56.357 E.02451
G1 X-71.709 Y55.773 E.01981
G1 X-71.841 Y55.02 E.02459
G1 X-71.881 Y54.424 E.01919
G1 X-71.881 Y-26.521 E2.6029
G1 X-71.811 Y-27.354 E.02687
G1 X-71.688 Y-27.956 E.01977
G1 X-71.427 Y-28.672 E.02452
G1 X-71.151 Y-29.223 E.01981
G1 X-70.714 Y-29.847 E.02451
G1 X-70.305 Y-30.309 E.01981
G1 X-69.721 Y-30.798 E.02451
G1 X-69.207 Y-31.138 E.01981
G1 X-68.516 Y-31.459 E.02451
G1 X-67.931 Y-31.655 E.01981
G1 X-67.178 Y-31.787 E.02459
G1 X-66.583 Y-31.826 E.01919
G1 X-65.939 Y-31.826 E.02071
G1 X-65.939 Y-31.419 F10800
G1 F2700
G1 X69.341 Y-31.419 E4.3501
G1 X70.13 Y-31.353 E.02546
G1 X70.678 Y-31.242 E.01796
G1 X71.346 Y-31 E.02287
G1 X71.858 Y-30.745 E.0184
G1 X72.254 Y-30.479 E.01533
G1 X72.851 Y-29.971 E.02519
G1 X73.308 Y-29.428 E.02285
G1 X73.618 Y-28.96 E.01802
G1 X73.919 Y-28.316 E.02286
G1 X74.101 Y-27.774 E.0184
G1 X74.191 Y-27.321 E.01484
G1 X74.261 Y-26.498 E.02655
G1 X74.261 Y54.395 E2.60124
G1 X74.195 Y55.185 E.02549
G1 X74.084 Y55.732 E.01796
G1 X73.841 Y56.401 E.02287
G1 X73.592 Y56.903 E.01802
G1 X73.184 Y57.485 E.02286
G1 X72.813 Y57.906 E.01802
G1 X72.269 Y58.363 E.02286
G1 X71.802 Y58.673 E.01802
G1 X71.158 Y58.974 E.02287
G1 X70.627 Y59.152 E.01802
G1 X69.923 Y59.277 E.02298
G1 X69.352 Y59.315 E.0184
G1 X-66.553 Y59.315 E4.37022
G1 X-67.343 Y59.249 E.02549
G1 X-67.891 Y59.139 E.01796
G1 X-68.559 Y58.896 E.02286
G1 X-69.061 Y58.647 E.01802
G1 X-69.644 Y58.239 E.02287
G1 X-70.064 Y57.868 E.01802
G1 X-70.522 Y57.324 E.02286
G1 X-70.831 Y56.857 E.01802
G1 X-71.132 Y56.213 E.02286
G1 X-71.311 Y55.681 E.01802
G1 X-71.436 Y54.978 E.02299
G1 X-71.474 Y54.407 E.0184
G1 X-71.474 Y-26.499 E2.60162
G1 X-71.408 Y-27.288 E.02549
G1 X-71.297 Y-27.836 E.01796
G1 X-71.055 Y-28.504 E.02287
G1 X-70.805 Y-29.006 E.01802
G1 X-70.398 Y-29.589 E.02286
G1 X-70.027 Y-30.009 E.01802
G1 X-69.482 Y-30.467 E.02286
G1 X-69.015 Y-30.777 E.01802
G1 X-68.371 Y-31.078 E.02286
G1 X-67.84 Y-31.256 E.01802
G1 X-67.136 Y-31.381 E.02299
G1 X-66.565 Y-31.419 E.0184
G1 X-65.979 Y-31.419 E.01886
G1 X-65.979 Y-31.012 F10800
G1 F2700
G1 X69.319 Y-31.012 E4.35068
G1 X70.066 Y-30.95 E.02409
G1 X70.558 Y-30.851 E.01616
G1 X71.179 Y-30.627 E.02121
G1 X71.646 Y-30.396 E.01678
G1 X72.002 Y-30.158 E.01376
G1 X72.553 Y-29.69 E.02326
G1 X72.978 Y-29.188 E.02111
G1 X73.257 Y-28.768 E.01623
G1 X73.538 Y-28.171 E.02121
G1 X73.705 Y-27.677 E.01678
G1 X73.786 Y-27.271 E.01331
G1 X73.854 Y-26.476 E.02565
G1 X73.854 Y54.373 E2.59981
G1 X73.792 Y55.12 E.02412
G1 X73.693 Y55.613 E.01616
G1 X73.469 Y56.234 E.02122
G1 X73.245 Y56.686 E.01624
G1 X72.868 Y57.228 E.02121
G1 X72.534 Y57.607 E.01624
G1 X72.03 Y58.032 E.02121
G1 X71.61 Y58.312 E.01624
G1 X71.013 Y58.593 E.02121
G1 X70.534 Y58.754 E.01624
G1 X69.88 Y58.871 E.02138
G1 X69.334 Y58.908 E.01759
G1 X-66.531 Y58.908 E4.36894
G1 X-67.279 Y58.846 E.02412
G1 X-67.771 Y58.748 E.01616
G1 X-68.392 Y58.524 E.02121
G1 X-68.844 Y58.3 E.01624
G1 X-69.386 Y57.923 E.02122
G1 X-69.765 Y57.589 E.01624
G1 X-70.191 Y57.085 E.02121
G1 X-70.47 Y56.665 E.01624
G1 X-70.751 Y56.068 E.02121
G1 X-70.912 Y55.589 E.01624
G1 X-71.03 Y54.935 E.02138
G1 X-71.067 Y54.389 E.01759
G1 X-71.067 Y-26.477 E2.60034
G1 X-71.005 Y-27.224 E.02412
G1 X-70.906 Y-27.717 E.01616
G1 X-70.682 Y-28.337 E.02122
G1 X-70.458 Y-28.79 E.01624
G1 X-70.081 Y-29.331 E.02121
G1 X-69.748 Y-29.71 E.01624
G1 X-69.243 Y-30.136 E.02121
G1 X-68.823 Y-30.416 E.01624
G1 X-68.226 Y-30.696 E.02121
G1 X-67.747 Y-30.858 E.01624
G1 X-67.093 Y-30.975 E.02138
G1 X-66.547 Y-31.012 E.01759
G1 X-66.019 Y-31.012 E.017
G1 X-66.019 Y-30.605 F10800
G1 F2700
G1 X69.297 Y-30.605 E4.35126
G1 X70.002 Y-30.547 E.02273
M73 P0 R180
G1 X70.44 Y-30.46 E.01437
G1 X71.012 Y-30.255 E.01956
G1 X71.435 Y-30.046 E.01516
G1 X71.751 Y-29.837 E.01218
G1 X72.257 Y-29.407 E.02133
G1 X72.647 Y-28.949 E.01937
G1 X72.897 Y-28.575 E.01444
G1 X73.156 Y-28.025 E.01956
G1 X73.308 Y-27.579 E.01516
G1 X73.381 Y-27.22 E.01177
G1 X73.447 Y-26.453 E.02475
G1 X73.447 Y54.351 E2.59837
G1 X73.388 Y55.056 E.02276
G1 X73.301 Y55.495 E.01437
G1 X73.096 Y56.067 E.01956
G1 X72.897 Y56.47 E.01445
G1 X72.551 Y56.97 E.01956
G1 X72.255 Y57.308 E.01445
G1 X71.791 Y57.702 E.01956
G1 X71.417 Y57.951 E.01445
G1 X70.867 Y58.211 E.01956
G1 X70.441 Y58.356 E.01445
G1 X69.837 Y58.466 E.01976
G1 X69.316 Y58.501 E.01678
G1 X-66.509 Y58.501 E4.36766
G1 X-67.215 Y58.443 E.02276
G1 X-67.653 Y58.356 E.01437
G1 X-68.226 Y58.151 E.01956
G1 X-68.629 Y57.952 E.01445
G1 X-69.129 Y57.606 E.01956
G1 X-69.467 Y57.309 E.01445
G1 X-69.86 Y56.846 E.01956
G1 X-70.11 Y56.472 E.01445
G1 X-70.37 Y55.922 E.01956
G1 X-70.514 Y55.496 E.01445
G1 X-70.624 Y54.892 E.01976
G1 X-70.66 Y54.371 E.01677
G1 X-70.66 Y-26.455 E2.59906
G1 X-70.602 Y-27.16 E.02275
G1 X-70.515 Y-27.598 E.01437
G1 X-70.309 Y-28.171 E.01956
G1 X-70.111 Y-28.574 E.01445
G1 X-69.764 Y-29.074 E.01956
G1 X-69.468 Y-29.412 E.01445
G1 X-69.004 Y-29.805 E.01956
G1 X-68.63 Y-30.055 E.01445
G1 X-68.08 Y-30.315 E.01956
G1 X-67.655 Y-30.459 E.01445
G1 X-67.05 Y-30.569 E.01976
G1 X-66.529 Y-30.605 E.01678
G1 X-66.059 Y-30.605 E.01514
G1 X-66.059 Y-30.198 F10800
G1 F2700
G1 X69.275 Y-30.198 E4.35185
G1 X69.938 Y-30.144 E.02138
G1 X70.322 Y-30.068 E.01258
G1 X70.847 Y-29.882 E.0179
G1 X71.225 Y-29.696 E.01355
G1 X71.5 Y-29.515 E.01059
G1 X71.974 Y-29.111 E.02004
G1 X72.317 Y-28.708 E.017
G1 X72.536 Y-28.382 E.01265
G1 X72.781 Y-27.866 E.01835
G1 X72.912 Y-27.48 E.0131
G1 X72.976 Y-27.169 E.01022
G1 X73.039 Y-26.431 E.02383
G1 X73.039 Y54.329 E2.59694
G1 X72.985 Y54.993 E.02141
G1 X72.91 Y55.377 E.01258
G1 X72.723 Y55.901 E.0179
G1 X72.55 Y56.255 E.01267
G1 X72.234 Y56.714 E.01791
G1 X71.974 Y57.01 E.01267
G1 X71.551 Y57.372 E.01791
G1 X71.223 Y57.591 E.01267
G1 X70.72 Y57.83 E.01791
G1 X70.348 Y57.958 E.01267
G1 X69.793 Y58.06 E.01813
G1 X69.298 Y58.094 E.01595
G1 X-66.488 Y58.094 E4.36638
G1 X-67.151 Y58.04 E.02141
G1 X-67.535 Y57.965 E.01258
G1 X-68.06 Y57.778 E.0179
G1 X-68.413 Y57.604 E.01267
G1 X-68.872 Y57.288 E.01791
G1 X-69.169 Y57.029 E.01267
G1 X-69.53 Y56.605 E.01791
G1 X-69.75 Y56.278 E.01267
G1 X-69.989 Y55.775 E.01791
G1 X-70.116 Y55.402 E.01267
G1 X-70.218 Y54.848 E.01814
G1 X-70.253 Y54.353 E.01595
G1 X-70.253 Y-26.433 E2.59778
G1 X-70.198 Y-27.096 E.02141
G1 X-70.123 Y-27.48 E.01258
G1 X-69.936 Y-28.005 E.01791
G1 X-69.763 Y-28.359 E.01267
G1 X-69.447 Y-28.817 E.0179
G1 X-69.188 Y-29.114 E.01267
G1 X-68.764 Y-29.475 E.01791
G1 X-68.436 Y-29.695 E.01267
G1 X-67.934 Y-29.934 E.01791
G1 X-67.561 Y-30.061 E.01267
G1 X-67.006 Y-30.163 E.01813
G1 X-66.511 Y-30.198 E.01595
G1 X-66.099 Y-30.198 E.01327
G1 X-66.099 Y-29.789 F10800
G1 F2700
G1 X69.358 Y-29.791 E4.35581
G1 X69.952 Y-29.729 E.01918
G1 X70.264 Y-29.662 E.01026
G1 X70.934 Y-29.382 E.02334
G1 X71.076 Y-29.301 E.00528
G1 X71.717 Y-28.789 E.02637
G1 X71.859 Y-28.626 E.00696
G1 X72.214 Y-28.117 E.01994
G1 X72.309 Y-27.924 E.00691
G1 X72.504 Y-27.381 E.01855
G1 X72.632 Y-26.511 E.0283
G1 X72.632 Y54.413 E2.60221
G1 X72.57 Y55.007 E.0192
G1 X72.503 Y55.319 E.01026
G1 X72.224 Y55.988 E.02334
G1 X72.143 Y56.131 E.00528
G1 X71.631 Y56.772 E.02637
G1 X71.468 Y56.914 E.00696
G1 X70.959 Y57.269 E.01994
G1 X70.766 Y57.364 E.00691
G1 X70.223 Y57.559 E.01855
G1 X69.353 Y57.687 E.0283
G1 X-66.571 Y57.687 E4.37081
G1 X-67.165 Y57.625 E.0192
G1 X-67.477 Y57.558 E.01026
G1 X-68.147 Y57.278 E.02334
G1 X-68.29 Y57.197 E.00528
G1 X-68.93 Y56.685 E.02637
G1 X-69.072 Y56.522 E.00696
G1 X-69.427 Y56.014 E.01994
G1 X-69.522 Y55.821 E.00691
G1 X-69.717 Y55.278 E.01855
G1 X-69.846 Y54.407 E.0283
G1 X-69.846 Y-26.516 E2.60221
G1 X-69.786 Y-27.088 E.0185
G1 X-69.595 Y-27.756 E.02233
G1 X-69.204 Y-28.454 E.02574
G1 X-68.95 Y-28.771 E.01304
G1 X-68.493 Y-29.165 E.0194
G1 X-67.872 Y-29.514 E.0229
G1 X-67.312 Y-29.695 E.01893
G1 X-66.59 Y-29.789 E.02341
G1 X-66.139 Y-29.789 E.01452
G1 X-66.139 Y-29.382 F10800
G1 F2700
G1 X69.365 Y-29.384 E4.3573
G1 X69.913 Y-29.324 E.01775
G1 X70.184 Y-29.263 E.00892
G1 X70.777 Y-29.006 E.02078
G1 X70.872 Y-28.949 E.00355
G1 X71.408 Y-28.524 E.022
G1 X71.524 Y-28.395 E.00558
G1 X71.848 Y-27.939 E.01798
G1 X71.927 Y-27.783 E.00562
G1 X72.1 Y-27.331 E.01559
